;FLAVOR:Marlin
;TIME:1757
;Filament used: 1.08701m
;Layer height: 0.2
;MINX:87.515
;MINY:87.52
;MINZ:0.2
;MAXX:147.479
;MAXY:147.48
;MAXZ:8
;Generated with Cura_SteamEngine 4.7.1
M140 S60
M105
M190 S60
M104 S200
M105
M109 S200
M82 ;absolute extrusion mode
; Robbie's Ender-3 V2 Start G-Code
M140 S60
M105
M190 S60
M104 S200
M105
M109 S200
M82 ;absolute extrusion mode
M201 X500.00 Y500.00 Z100.00 E5000.00 ;Setup machine max acceleration
M203 X500.00 Y500.00 Z10.00 E50.00 ;Setup machine max feedrate
M204 P500.00 R1000.00 T500.00 ;Setup Print/Retract/Travel acceleration
M205 X8.00 Y8.00 Z0.40 E5.00 ;Setup Jerk
M220 S100 ;Reset Feedrate
M221 S100 ;Reset Flowrate

G28 ;Home

G92 E0 ;Reset Extruder
G1 Z2.0 F3000 ;Move Z Axis up
G1 X10.1 Y20 Z0.28 F5000.0 ;Move to start position
G1 X10.1 Y200.0 Z0.28 F1500.0 E15 ;Draw the first line
G1 X10.4 Y200.0 Z0.28 F5000.0 ;Move to side a little
G1 X10.4 Y20 Z0.28 F1500.0 E30 ;Draw the second line
G92 E0 ;Reset Extruder
G1 Z2.0 F3000 ;Move Z Axis up

G92 E0
G92 E0
G1 F2700 E-5
G92 E0
G92 E0
G1 F1500 E-6
;LAYER_COUNT:40
;LAYER:0
M107
G0 F6000 X98.073 Y94.832 Z0.2
;TYPE:SKIRT
G1 F1500 E0
G1 F1200 X98.67 Y94.251 E0.02771
G1 X99.37 Y93.627 E0.0589
G1 X100.12 Y93.065 E0.09007
G1 X101.179 Y92.424 E0.13124
G1 X101.858 Y92.064 E0.1568
G1 X105.991 Y89.957 E0.3111
G1 X106.76 Y89.577 E0.33963
G1 X107.618 Y89.198 E0.37083
G1 X108.506 Y88.894 E0.40204
G1 X109.744 Y88.605 E0.44433
G1 X110.688 Y88.442 E0.47619
G1 X115.167 Y87.734 E0.62701
G1 X115.687 Y87.656 E0.6445
G1 X115.932 Y87.622 E0.65273
G1 X116.113 Y87.599 E0.65879
G1 X117.048 Y87.52 E0.69
G1 X117.986 Y87.522 E0.7212
G1 X118.811 Y87.589 E0.74873
G1 X119.061 Y87.619 E0.75711
G1 X119.385 Y87.663 E0.76798
G1 X119.662 Y87.705 E0.7773
G1 X124.708 Y88.504 E0.94722
G1 X124.892 Y88.535 E0.95343
G1 X125.132 Y88.578 E0.96154
G1 X125.435 Y88.636 E0.9718
G1 X126.348 Y88.852 E1.003
G1 X127.239 Y89.144 E1.03419
G1 X128.06 Y89.491 E1.06383
G1 X128.378 Y89.641 E1.07553
G1 X128.679 Y89.789 E1.08668
G1 X133.13 Y92.058 E1.25285
G1 X133.775 Y92.397 E1.27709
G1 X134.585 Y92.868 E1.30825
G1 X135.353 Y93.407 E1.33946
G1 X136.322 Y94.244 E1.38204
G1 X136.882 Y94.788 E1.40801
G1 X140.274 Y98.18 E1.56756
G1 X140.741 Y98.66 E1.58984
G1 X141.366 Y99.36 E1.62105
G1 X141.929 Y100.11 E1.65224
G1 X142.579 Y101.184 E1.69399
G1 X142.939 Y101.864 E1.71958
G1 X145.04 Y105.985 E1.87343
G1 X145.423 Y106.76 E1.90219
G1 X145.802 Y107.618 E1.93338
G1 X146.106 Y108.505 E1.96457
G1 X146.395 Y109.744 E2.00689
G1 X146.558 Y110.688 E2.03875
G1 X147.266 Y115.167 E2.18957
G1 X147.344 Y115.687 E2.20706
G1 X147.377 Y115.925 E2.21505
G1 X147.4 Y116.105 E2.22109
G1 X147.479 Y117.039 E2.25226
G1 X147.479 Y117.977 E2.28346
G1 X147.41 Y118.815 E2.31143
G1 X147.38 Y119.064 E2.31977
G1 X147.339 Y119.368 E2.32997
G1 X147.296 Y119.656 E2.33966
G1 X146.54 Y124.43 E2.50042
G1 X146.402 Y125.231 E2.52745
G1 X146.203 Y126.148 E2.55866
G1 X145.927 Y127.044 E2.58984
G1 X145.44 Y128.2 E2.63157
G1 X145.014 Y129.067 E2.66369
G1 X143.006 Y133.007 E2.81078
G1 X142.603 Y133.775 E2.83962
G1 X142.132 Y134.585 E2.87079
G1 X141.593 Y135.353 E2.90199
G1 X140.756 Y136.322 E2.94458
G1 X140.212 Y136.882 E2.97055
G1 X136.82 Y140.274 E3.1301
G1 X136.34 Y140.741 E3.15237
G1 X135.64 Y141.366 E3.18358
G1 X134.89 Y141.929 E3.21478
G1 X133.816 Y142.579 E3.25653
G1 X133.136 Y142.939 E3.28212
G1 X129.015 Y145.04 E3.43597
G1 X128.24 Y145.423 E3.46472
G1 X127.382 Y145.802 E3.49592
G1 X126.495 Y146.106 E3.52711
G1 X125.256 Y146.395 E3.56942
G1 X124.312 Y146.558 E3.60129
G1 X119.833 Y147.266 E3.75211
G1 X119.313 Y147.344 E3.7696
G1 X119.068 Y147.378 E3.77782
G1 X118.887 Y147.401 E3.78389
G1 X117.952 Y147.48 E3.8151
G1 X117.014 Y147.478 E3.8463
G1 X116.189 Y147.411 E3.87383
G1 X115.939 Y147.381 E3.8822
G1 X115.615 Y147.337 E3.89308
G1 X115.338 Y147.295 E3.9024
G1 X110.292 Y146.496 E4.07232
G1 X109.918 Y146.431 E4.08494
G1 X109.618 Y146.375 E4.09509
G1 X108.704 Y146.164 E4.12629
G1 X107.811 Y145.876 E4.1575
G1 X106.928 Y145.504 E4.18937
G1 X106.607 Y145.352 E4.20118
G1 X106.321 Y145.211 E4.21179
G1 X101.87 Y142.942 E4.37796
G1 X101.225 Y142.603 E4.40219
G1 X100.415 Y142.132 E4.43336
G1 X99.647 Y141.593 E4.46456
G1 X98.678 Y140.756 E4.50715
G1 X98.118 Y140.212 E4.53312
G1 X94.726 Y136.82 E4.69267
G1 X94.258 Y136.339 E4.71499
G1 X93.633 Y135.639 E4.7462
G1 X93.07 Y134.889 E4.77739
G1 X92.418 Y133.809 E4.81935
G1 X91.982 Y132.983 E4.85041
G1 X89.96 Y129.015 E4.99854
G1 X89.573 Y128.231 E5.02762
G1 X89.195 Y127.373 E5.0588
G1 X88.892 Y126.486 E5.08998
G1 X88.606 Y125.263 E5.13175
G1 X88.45 Y124.365 E5.16207
G1 X87.74 Y119.88 E5.3131
G1 X87.624 Y119.084 E5.33985
G1 X87.53 Y118.151 E5.37104
G1 X87.515 Y117.214 E5.40221
G1 X87.621 Y115.956 E5.4442
G1 X87.733 Y115.171 E5.47057
G1 X87.758 Y115.005 E5.47616
G1 X88.46 Y110.57 E5.6255
G1 X88.598 Y109.769 E5.65253
G1 X88.797 Y108.852 E5.68374
G1 X89.073 Y107.956 E5.71493
G1 X89.56 Y106.8 E5.75665
G1 X89.986 Y105.933 E5.78878
G1 X91.994 Y101.993 E5.93586
G1 X92.397 Y101.225 E5.96471
G1 X92.868 Y100.415 E5.99587
G1 X93.407 Y99.647 E6.02708
G1 X94.244 Y98.678 E6.06967
G1 X94.788 Y98.118 E6.09563
G1 X98.073 Y94.832 E6.25017
G0 F6000 X98.467 Y95.005
G1 F1200 X98.948 Y94.538 E6.27247
G1 X99.636 Y93.926 E6.3031
G1 X100.374 Y93.376 E6.33371
G1 X101.367 Y92.778 E6.37226
G1 X102.198 Y92.338 E6.40354
G1 X106.172 Y90.313 E6.55188
G1 X106.937 Y89.935 E6.58026
G1 X107.78 Y89.565 E6.61088
G1 X108.652 Y89.268 E6.64152
G1 X109.812 Y88.999 E6.68113
G1 X110.751 Y88.837 E6.71282
G1 X115.227 Y88.129 E6.86355
G1 X115.747 Y88.051 E6.88103
G1 X116.164 Y87.996 E6.89502
G1 X117.081 Y87.919 E6.92563
G1 X118.002 Y87.923 E6.95626
G1 X118.763 Y87.987 E6.98166
G1 X119.013 Y88.017 E6.99004
G1 X119.325 Y88.059 E7.00051
G1 X119.599 Y88.1 E7.00972
G1 X124.641 Y88.898 E7.17951
G1 X124.825 Y88.929 E7.18571
G1 X125.057 Y88.971 E7.19356
G1 X125.36 Y89.029 E7.20382
G1 X126.256 Y89.241 E7.23444
G1 X127.13 Y89.53 E7.26506
G1 X127.889 Y89.853 E7.29249
G1 X128.207 Y90.003 E7.30419
G1 X128.498 Y90.146 E7.31497
G1 X132.944 Y92.412 E7.48095
G1 X133.589 Y92.751 E7.50518
G1 X134.384 Y93.214 E7.53578
G1 X135.136 Y93.745 E7.5664
G1 X136.043 Y94.531 E7.60632
G1 X136.603 Y95.075 E7.63228
G1 X139.988 Y98.459 E7.79148
G1 X140.455 Y98.939 E7.81375
G1 X141.067 Y99.626 E7.84436
G1 X141.618 Y100.364 E7.87499
G1 X142.225 Y101.371 E7.9141
G1 X142.585 Y102.051 E7.93969
G1 X144.683 Y106.166 E8.09331
G1 X145.064 Y106.937 E8.12192
G1 X145.435 Y107.779 E8.15252
G1 X145.732 Y108.651 E8.18316
G1 X146.001 Y109.812 E8.2228
G1 X146.163 Y110.751 E8.25449
G1 X146.871 Y115.227 E8.40521
G1 X146.949 Y115.747 E8.4227
G1 X146.981 Y115.975 E8.43036
G1 X147.004 Y116.155 E8.4364
G1 X147.08 Y117.073 E8.46703
G1 X147.077 Y117.994 E8.49767
G1 X147.013 Y118.767 E8.52346
G1 X146.983 Y119.016 E8.53181
G1 X146.943 Y119.309 E8.54164
G1 X146.901 Y119.594 E8.55122
G1 X146.145 Y124.368 E8.71199
G1 X146.008 Y125.163 E8.73882
G1 X145.812 Y126.063 E8.76945
G1 X145.539 Y126.942 E8.80007
G1 X145.081 Y128.024 E8.83914
G1 X144.731 Y128.738 E8.86559
G1 X142.588 Y132.944 E9.0226
G1 X142.249 Y133.589 E9.04683
G1 X141.786 Y134.384 E9.07743
G1 X141.255 Y135.136 E9.10805
G1 X140.469 Y136.043 E9.14797
G1 X139.925 Y136.603 E9.17393
G1 X136.541 Y139.988 E9.33313
G1 X136.061 Y140.455 E9.3554
G1 X135.374 Y141.067 E9.38601
G1 X134.636 Y141.618 E9.41664
G1 X133.629 Y142.225 E9.45575
G1 X132.949 Y142.585 E9.48134
G1 X128.834 Y144.683 E9.63496
G1 X128.063 Y145.064 E9.66357
G1 X127.221 Y145.435 E9.69417
G1 X126.349 Y145.732 E9.72481
G1 X125.188 Y146.001 E9.76445
G1 X124.249 Y146.163 E9.79614
G1 X119.773 Y146.871 E9.94686
G1 X119.253 Y146.949 E9.96435
G1 X118.836 Y147.004 E9.97834
G1 X117.919 Y147.081 E10.00895
G1 X116.998 Y147.077 E10.03958
G1 X116.237 Y147.013 E10.06498
G1 X115.987 Y146.983 E10.07336
G1 X115.675 Y146.941 E10.08383
G1 X115.401 Y146.9 E10.09304
G1 X110.359 Y146.102 E10.26283
G1 X109.991 Y146.038 E10.27525
G1 X109.691 Y145.982 E10.2854
G1 X108.794 Y145.774 E10.31603
G1 X107.919 Y145.489 E10.34663
G1 X107.1 Y145.142 E10.37622
G1 X106.779 Y144.99 E10.38803
G1 X106.502 Y144.854 E10.3983
G1 X102.056 Y142.588 E10.56427
G1 X101.411 Y142.249 E10.5885
G1 X100.616 Y141.786 E10.6191
G1 X99.864 Y141.255 E10.64972
G1 X98.957 Y140.469 E10.68964
G1 X98.397 Y139.925 E10.71561
G1 X95.013 Y136.541 E10.87478
G1 X94.545 Y136.06 E10.8971
G1 X93.932 Y135.373 E10.92772
G1 X93.381 Y134.635 E10.95836
G1 X92.771 Y133.623 E10.99766
G1 X92.412 Y132.944 E11.0232
G1 X90.251 Y128.703 E11.18152
G1 X89.932 Y128.055 E11.20554
G1 X89.562 Y127.212 E11.23616
G1 X89.266 Y126.34 E11.26679
G1 X89 Y125.195 E11.30588
G1 X88.845 Y124.302 E11.33603
G1 X88.135 Y119.817 E11.48706
G1 X88.02 Y119.027 E11.51361
G1 X87.928 Y118.111 E11.54423
G1 X87.916 Y117.191 E11.57483
G1 X88.017 Y116.013 E11.61416
G1 X88.153 Y115.068 E11.64591
G1 X88.855 Y110.633 E11.79526
G1 X88.992 Y109.837 E11.82212
G1 X89.188 Y108.937 E11.85276
G1 X89.461 Y108.058 E11.88337
G1 X89.919 Y106.976 E11.92245
G1 X90.269 Y106.262 E11.9489
G1 X92.412 Y102.056 E12.1059
G1 X92.751 Y101.411 E12.13014
G1 X93.214 Y100.616 E12.16074
G1 X93.745 Y99.864 E12.19135
G1 X94.531 Y98.957 E12.23127
G1 X95.075 Y98.397 E12.25724
G1 X98.467 Y95.005 E12.41679
G0 F6000 X98.746 Y95.292
G1 F1200 X99.227 Y94.825 E12.43909
G1 X99.902 Y94.225 E12.46912
G1 X100.628 Y93.687 E12.49918
G1 X101.554 Y93.131 E12.5351
G1 X102.233 Y92.771 E12.56066
G1 X106.354 Y90.67 E12.71451
G1 X106.475 Y90.609 E12.71902
G1 X107.114 Y90.294 E12.74272
G1 X107.941 Y89.931 E12.77276
G1 X108.797 Y89.643 E12.8028
G1 X109.881 Y89.393 E12.8398
G1 X110.813 Y89.232 E12.87125
G1 X115.286 Y88.525 E13.02187
G1 X115.806 Y88.447 E13.03936
G1 X116.033 Y88.415 E13.04699
G1 X116.214 Y88.392 E13.05305
G1 X117.114 Y88.318 E13.08309
G1 X118.017 Y88.324 E13.11312
G1 X118.715 Y88.384 E13.13643
G1 X118.965 Y88.414 E13.1448
G1 X119.266 Y88.454 E13.1549
G1 X119.537 Y88.495 E13.16402
G1 X124.575 Y89.293 E13.33367
G1 X124.759 Y89.324 E13.33988
G1 X124.982 Y89.364 E13.34741
G1 X125.285 Y89.422 E13.35767
G1 X126.163 Y89.631 E13.38769
G1 X127.02 Y89.917 E13.41774
G1 X127.719 Y90.215 E13.44301
G1 X128.037 Y90.365 E13.45471
G1 X128.316 Y90.502 E13.46504
G1 X132.757 Y92.766 E13.63084
G1 X133.402 Y93.105 E13.65508
G1 X134.182 Y93.56 E13.68511
G1 X134.919 Y94.083 E13.71517
G1 X135.764 Y94.818 E13.75242
G1 X136.324 Y95.362 E13.77838
G1 X139.701 Y98.738 E13.9372
G1 X140.168 Y99.218 E13.95948
G1 X140.768 Y99.893 E13.98952
G1 X141.307 Y100.618 E14.01956
G1 X141.872 Y101.559 E14.05607
G1 X142.232 Y102.239 E14.08166
G1 X144.327 Y106.348 E14.23506
G1 X144.388 Y106.469 E14.23957
G1 X144.706 Y107.114 E14.26349
G1 X145.069 Y107.94 E14.2935
G1 X145.357 Y108.796 E14.32354
G1 X145.607 Y109.881 E14.36057
G1 X145.768 Y110.813 E14.39203
G1 X146.475 Y115.286 E14.54265
G1 X146.553 Y115.806 E14.56014
G1 X146.584 Y116.026 E14.56753
G1 X146.607 Y116.206 E14.57356
G1 X146.681 Y117.106 E14.6036
G1 X146.676 Y118.009 E14.63363
G1 X146.616 Y118.719 E14.65733
G1 X146.586 Y118.968 E14.66567
G1 X146.548 Y119.251 E14.67517
G1 X146.505 Y119.531 E14.68459
G1 X145.726 Y124.447 E14.85014
G1 X145.614 Y125.095 E14.87201
G1 X145.421 Y125.977 E14.90204
G1 X145.151 Y126.839 E14.93208
G1 X144.722 Y127.848 E14.96855
G1 X144.372 Y128.562 E14.995
G1 X144.301 Y128.704 E15.00028
G1 X142.293 Y132.644 E15.14736
G1 X141.895 Y133.402 E15.17583
G1 X141.44 Y134.182 E15.20587
G1 X140.917 Y134.919 E15.23593
G1 X140.182 Y135.764 E15.27318
G1 X139.638 Y136.324 E15.29914
G1 X136.262 Y139.701 E15.45796
G1 X135.782 Y140.168 E15.48024
G1 X135.107 Y140.768 E15.51027
G1 X134.382 Y141.307 E15.54032
G1 X133.441 Y141.872 E15.57683
G1 X132.761 Y142.232 E15.60242
G1 X128.652 Y144.327 E15.75582
G1 X128.531 Y144.388 E15.76033
G1 X127.886 Y144.706 E15.78425
G1 X127.06 Y145.069 E15.81426
G1 X126.204 Y145.357 E15.8443
G1 X125.119 Y145.607 E15.88133
G1 X124.187 Y145.768 E15.91279
G1 X119.714 Y146.475 E16.06341
G1 X119.194 Y146.553 E16.08089
G1 X118.967 Y146.585 E16.08852
G1 X118.786 Y146.608 E16.09459
G1 X117.886 Y146.682 E16.12462
G1 X116.983 Y146.676 E16.15466
G1 X116.285 Y146.616 E16.17796
G1 X116.035 Y146.586 E16.18633
G1 X115.734 Y146.546 E16.19643
G1 X115.463 Y146.505 E16.20555
G1 X110.425 Y145.707 E16.3752
G1 X110.064 Y145.645 E16.38739
G1 X109.764 Y145.589 E16.39754
G1 X108.885 Y145.384 E16.42756
G1 X108.027 Y145.102 E16.45759
G1 X107.271 Y144.781 E16.48491
G1 X106.95 Y144.629 E16.49673
G1 X106.684 Y144.498 E16.50659
G1 X102.243 Y142.234 E16.67238
G1 X101.598 Y141.895 E16.69662
G1 X100.818 Y141.44 E16.72665
G1 X100.081 Y140.917 E16.75671
G1 X99.236 Y140.182 E16.79396
G1 X98.676 Y139.638 E16.81993
G1 X95.299 Y136.262 E16.97875
G1 X94.831 Y135.781 E17.00107
G1 X94.231 Y135.106 E17.0311
G1 X93.692 Y134.381 E17.06115
G1 X93.125 Y133.436 E17.09781
G1 X92.766 Y132.757 E17.12335
G1 X92.695 Y132.62 E17.12848
G1 X90.673 Y128.652 E17.27661
G1 X90.291 Y127.878 E17.30532
G1 X89.928 Y127.051 E17.33536
G1 X89.64 Y126.195 E17.36539
G1 X89.394 Y125.126 E17.40188
G1 X89.24 Y124.24 E17.43179
G1 X88.53 Y119.755 E17.58282
G1 X88.416 Y118.97 E17.6092
G1 X88.326 Y118.071 E17.63925
G1 X88.317 Y117.168 E17.66929
G1 X88.413 Y116.069 E17.70598
G1 X88.548 Y115.13 E17.73753
G1 X89.25 Y110.695 E17.88688
G1 X89.386 Y109.905 E17.91354
G1 X89.579 Y109.023 E17.94357
G1 X89.849 Y108.161 E17.97361
G1 X90.278 Y107.152 E18.01008
G1 X90.628 Y106.438 E18.03653
G1 X90.699 Y106.296 E18.04181
G1 X92.707 Y102.356 E18.18889
G1 X93.105 Y101.598 E18.21736
G1 X93.56 Y100.818 E18.2474
G1 X94.083 Y100.081 E18.27746
G1 X94.818 Y99.236 E18.31471
G1 X95.362 Y98.676 E18.34067
G1 X98.746 Y95.292 E18.49985
G1 F1500 E12.49985
;MESH:Ender-3 v2 Spool Nut.stl
G0 F6000 X104.729 Y111.291
G0 X103.686 Y110.048
G0 X102.414 Y114.841
G0 X102.185 Y117.325
G0 X102.243 Y118.764
G0 X102.392 Y120.03
G0 X102.673 Y121.31
G0 X103.053 Y122.584
G0 X103.525 Y123.755
G0 X104.142 Y124.992
G0 X105.449 Y126.954
G0 X106.356 Y127.997
G0 X107.655 Y129.235
G0 X109.278 Y130.423
G0 X110.456 Y131.096
G0 X112.5 Y131.977
G0 X113.988 Y132.409
G0 X114.824 Y132.561
G0 X115.44 Y130.287
;TYPE:WALL-INNER
G1 F1500 E18.49985
G1 F1200 X116.455 Y130.437 E18.53397
G1 X117.497 Y130.478 E18.56865
G1 X119.035 Y130.378 E18.61992
G1 X120.475 Y130.129 E18.66852
G1 X120.585 Y130.105 E18.67227
G1 X121.958 Y129.678 E18.72009
G1 X122.092 Y129.624 E18.7249
G1 X123.409 Y129.055 E18.77261
G1 X124.003 Y128.732 E18.7951
G1 X124.106 Y128.667 E18.79915
G1 X125.506 Y127.699 E18.85576
G1 X125.634 Y127.601 E18.86112
G1 X125.721 Y127.515 E18.86519
G1 X126.772 Y126.581 E18.91196
G1 X127.779 Y125.404 E18.96348
G1 X130.745 Y124.667 E19.06513
G1 X131.315 Y124.518 E19.08472
G1 X131.461 Y124.172 E19.09721
G1 X131.469 Y124.15 E19.09799
G1 X132.049 Y122.787 E19.14726
G1 X132.744 Y120.19 E19.23668
G1 X132.87 Y118.814 E19.28263
G1 X132.949 Y117.999 E19.30987
G1 X132.976 Y117.681 E19.32048
G1 X132.944 Y116.523 E19.35901
G1 X132.918 Y116.23 E19.3688
G1 X132.767 Y114.955 E19.4115
G1 X132.557 Y113.93 E19.4463
G1 X132.49 Y113.677 E19.455
G1 X132.106 Y112.384 E19.49987
G1 X131.734 Y111.427 E19.53402
G1 X131.636 Y111.219 E19.54166
G1 X131.013 Y109.956 E19.5885
G1 X129.831 Y108.163 E19.65993
G1 X129.724 Y108.011 E19.66611
G1 X129.14 Y107.306 E19.69656
G1 X127.971 Y106.106 E19.75228
G1 X127.008 Y105.291 E19.79424
G1 X125.908 Y104.509 E19.83913
G1 X124.805 Y103.857 E19.88175
G1 X122.626 Y102.899 E19.96092
G1 X121.205 Y102.476 E20.01023
G1 X120.228 Y102.275 E20.0434
G1 X120.029 Y102.235 E20.05016
G1 X119.995 Y102.434 E20.05445
G1 X119.994 Y102.435 E20.0545
G1 X119.622 Y104.525 E20.1251
