;FLAVOR:Marlin
;TIME:2006
;Filament used: 1.20278m
;Layer height: 0.2
;MINX:87.515
;MINY:87.52
;MINZ:0.2
;MAXX:147.485
;MAXY:147.485
;MAXZ:8
;Generated with Cura_SteamEngine 4.7.1
M140 S60
M105
M190 S60
M104 S200
M105
M109 S200
M82 ;absolute extrusion mode
; Robbie's Ender-3 V2 Start G-Code
M140 S60
M105
M190 S60
M104 S200
M105
M109 S200
M82 ;absolute extrusion mode
M201 X500.00 Y500.00 Z100.00 E5000.00 ;Setup machine max acceleration
M203 X500.00 Y500.00 Z10.00 E50.00 ;Setup machine max feedrate
M204 P500.00 R1000.00 T500.00 ;Setup Print/Retract/Travel acceleration
M205 X8.00 Y8.00 Z0.40 E5.00 ;Setup Jerk
M220 S100 ;Reset Feedrate
M221 S100 ;Reset Flowrate

G28 ;Home

G92 E0 ;Reset Extruder
G1 Z2.0 F3000 ;Move Z Axis up
G1 X10.1 Y20 Z0.28 F5000.0 ;Move to start position
G1 X10.1 Y200.0 Z0.28 F1500.0 E15 ;Draw the first line
G1 X10.4 Y200.0 Z0.28 F5000.0 ;Move to side a little
G1 X10.4 Y20 Z0.28 F1500.0 E30 ;Draw the second line
G92 E0 ;Reset Extruder
G1 Z2.0 F3000 ;Move Z Axis up

G92 E0
G92 E0
G1 F2700 E-5
G92 E0
G92 E0
G1 F1500 E-6
;LAYER_COUNT:40
;LAYER:0
M107
G0 F6000 X94.788 Y98.118 Z0.2
;TYPE:SKIRT
G1 F1500 E0
G1 F1200 X98.18 Y94.726 E0.15955
G1 X98.66 Y94.259 E0.18182
G1 X99.36 Y93.634 E0.21304
G1 X100.11 Y93.071 E0.24423
G1 X101.184 Y92.421 E0.28598
G1 X101.864 Y92.061 E0.31157
G1 X105.991 Y89.957 E0.46565
G1 X106.76 Y89.577 E0.49417
G1 X107.618 Y89.198 E0.52537
G1 X108.506 Y88.894 E0.55659
G1 X109.744 Y88.605 E0.59887
G1 X110.688 Y88.442 E0.63073
G1 X115.167 Y87.734 E0.78156
G1 X115.687 Y87.656 E0.79905
G1 X115.932 Y87.622 E0.80727
G1 X116.113 Y87.599 E0.81334
G1 X117.048 Y87.52 E0.84455
G1 X117.986 Y87.522 E0.87575
G1 X118.811 Y87.589 E0.90328
G1 X119.061 Y87.619 E0.91165
G1 X119.385 Y87.663 E0.92253
G1 X119.662 Y87.705 E0.93185
G1 X124.708 Y88.504 E1.10177
G1 X124.892 Y88.535 E1.10797
G1 X125.132 Y88.578 E1.11608
G1 X125.435 Y88.636 E1.12634
G1 X126.348 Y88.852 E1.15755
G1 X127.239 Y89.144 E1.18873
G1 X128.06 Y89.491 E1.21838
G1 X128.378 Y89.641 E1.23007
G1 X128.679 Y89.789 E1.24123
G1 X133.13 Y92.058 E1.4074
G1 X133.775 Y92.397 E1.43163
G1 X134.585 Y92.868 E1.4628
G1 X135.353 Y93.407 E1.494
G1 X136.322 Y94.244 E1.53659
G1 X136.882 Y94.788 E1.56256
G1 X140.274 Y98.18 E1.72211
G1 X140.741 Y98.66 E1.74438
G1 X141.366 Y99.36 E1.77559
G1 X141.929 Y100.11 E1.80678
G1 X142.579 Y101.184 E1.84854
G1 X142.939 Y101.864 E1.87413
G1 X145.104 Y106.113 E2.03274
G1 X145.424 Y106.762 E2.05681
G1 X145.802 Y107.621 E2.08802
G1 X146.106 Y108.508 E2.11921
G1 X146.394 Y109.737 E2.16119
G1 X146.55 Y110.635 E2.19151
G1 X147.26 Y115.12 E2.34254
G1 X147.375 Y115.912 E2.36915
G1 X147.47 Y116.845 E2.40035
G1 X147.485 Y117.783 E2.43155
G1 X147.38 Y119.035 E2.47334
G1 X147.267 Y119.831 E2.50008
G1 X147.241 Y120.004 E2.5059
G1 X146.498 Y124.698 E2.66396
G1 X146.467 Y124.883 E2.6702
G1 X146.427 Y125.105 E2.6777
G1 X146.37 Y125.407 E2.68793
G1 X146.157 Y126.32 E2.71911
G1 X145.867 Y127.212 E2.7503
G1 X145.498 Y128.085 E2.78183
G1 X145.347 Y128.403 E2.79354
G1 X145.211 Y128.679 E2.80377
G1 X142.942 Y133.13 E2.96994
G1 X142.603 Y133.775 E2.99417
G1 X142.132 Y134.585 E3.02534
G1 X141.593 Y135.353 E3.05654
G1 X140.756 Y136.322 E3.09913
G1 X140.212 Y136.882 E3.1251
G1 X136.927 Y140.168 E3.27964
G1 X136.33 Y140.749 E3.30735
G1 X135.63 Y141.373 E3.33853
G1 X134.88 Y141.935 E3.36971
G1 X133.821 Y142.576 E3.41088
G1 X133.142 Y142.936 E3.43644
G1 X129.015 Y145.04 E3.59051
G1 X128.231 Y145.427 E3.61959
G1 X127.373 Y145.805 E3.65078
G1 X126.486 Y146.108 E3.68195
G1 X125.263 Y146.394 E3.72373
G1 X124.365 Y146.55 E3.75404
G1 X119.88 Y147.26 E3.90507
G1 X119.078 Y147.376 E3.93202
G1 X118.145 Y147.471 E3.96322
G1 X117.207 Y147.485 E3.99442
G1 X115.95 Y147.378 E4.03638
G1 X115.005 Y147.242 E4.06813
G1 X110.57 Y146.54 E4.21748
G1 X109.769 Y146.402 E4.24451
G1 X108.852 Y146.203 E4.27572
G1 X107.956 Y145.927 E4.3069
G1 X106.8 Y145.44 E4.34862
G1 X105.933 Y145.014 E4.38075
G1 X101.993 Y143.006 E4.52784
G1 X101.225 Y142.603 E4.55668
G1 X100.415 Y142.132 E4.58785
G1 X99.647 Y141.593 E4.61905
G1 X98.678 Y140.756 E4.66164
G1 X98.118 Y140.212 E4.68761
G1 X94.726 Y136.82 E4.84716
G1 X94.258 Y136.339 E4.86948
G1 X93.633 Y135.639 E4.90069
G1 X93.07 Y134.889 E4.93188
G1 X92.418 Y133.809 E4.97384
G1 X91.982 Y132.983 E5.00491
G1 X89.96 Y129.015 E5.15303
G1 X89.57 Y128.224 E5.18236
G1 X89.193 Y127.366 E5.21353
G1 X88.89 Y126.478 E5.24474
G1 X88.606 Y125.265 E5.28618
G1 X88.45 Y124.365 E5.31656
G1 X87.74 Y119.88 E5.46759
G1 X87.624 Y119.084 E5.49434
G1 X87.53 Y118.151 E5.52553
G1 X87.515 Y117.214 E5.5567
G1 X87.62 Y115.962 E5.59849
G1 X87.733 Y115.167 E5.62519
G1 X87.759 Y114.996 E5.63095
G1 X88.502 Y110.302 E5.78901
G1 X88.533 Y110.117 E5.79525
G1 X88.582 Y109.846 E5.80441
G1 X88.641 Y109.541 E5.81474
G1 X88.858 Y108.628 E5.84596
G1 X89.153 Y107.738 E5.87714
G1 X89.497 Y106.926 E5.90647
G1 X89.646 Y106.611 E5.91806
G1 X89.789 Y106.321 E5.92882
G1 X92.058 Y101.87 E6.09498
G1 X92.397 Y101.225 E6.11922
G1 X92.868 Y100.415 E6.15038
G1 X93.407 Y99.647 E6.18159
G1 X94.244 Y98.678 E6.22418
G1 X94.788 Y98.118 E6.25014
G0 F6000 X95.075 Y98.397
G1 F1200 X98.459 Y95.012 E6.40934
G1 X98.939 Y94.545 E6.43162
G1 X99.626 Y93.933 E6.46222
G1 X100.364 Y93.382 E6.49285
G1 X101.371 Y92.775 E6.53196
G1 X102.198 Y92.338 E6.56307
G1 X106.172 Y90.313 E6.71141
G1 X106.937 Y89.935 E6.73979
G1 X107.78 Y89.565 E6.77041
G1 X108.652 Y89.268 E6.80105
G1 X109.812 Y88.999 E6.84066
G1 X110.751 Y88.837 E6.87235
G1 X115.227 Y88.129 E7.02307
G1 X115.747 Y88.051 E7.04056
G1 X116.164 Y87.996 E7.05455
G1 X117.081 Y87.919 E7.08516
G1 X118.002 Y87.923 E7.11579
G1 X118.763 Y87.987 E7.14119
G1 X119.013 Y88.017 E7.14957
G1 X119.325 Y88.059 E7.16004
G1 X119.599 Y88.1 E7.16925
G1 X124.641 Y88.898 E7.33904
G1 X124.825 Y88.929 E7.34524
G1 X125.057 Y88.971 E7.35309
G1 X125.36 Y89.029 E7.36335
G1 X126.256 Y89.241 E7.39397
G1 X127.13 Y89.53 E7.42459
G1 X127.889 Y89.853 E7.45202
G1 X128.207 Y90.003 E7.46372
G1 X128.498 Y90.146 E7.4745
G1 X132.944 Y92.412 E7.64048
G1 X133.589 Y92.751 E7.66471
G1 X134.384 Y93.214 E7.69531
G1 X135.136 Y93.745 E7.72593
G1 X136.043 Y94.531 E7.76585
G1 X136.603 Y95.075 E7.79181
G1 X139.988 Y98.459 E7.95101
G1 X140.455 Y98.939 E7.97328
G1 X141.067 Y99.626 E8.00389
G1 X141.618 Y100.364 E8.03452
G1 X142.225 Y101.371 E8.07363
G1 X142.662 Y102.199 E8.10477
G1 X144.683 Y106.166 E8.25284
G1 X145.065 Y106.939 E8.28152
G1 X145.436 Y107.782 E8.31216
G1 X145.732 Y108.654 E8.34278
G1 X146 Y109.805 E8.38209
G1 X146.155 Y110.698 E8.41224
G1 X146.886 Y115.321 E8.56791
G1 X146.98 Y115.97 E8.58972
G1 X147.072 Y116.886 E8.62034
G1 X147.084 Y117.806 E8.65094
G1 X146.984 Y118.979 E8.6901
G1 X146.871 Y119.775 E8.71684
G1 X146.846 Y119.941 E8.72242
G1 X146.103 Y124.632 E8.88039
G1 X146.034 Y125.031 E8.89386
G1 X145.977 Y125.333 E8.90408
G1 X145.767 Y126.229 E8.93469
G1 X145.48 Y127.104 E8.96531
G1 X145.136 Y127.914 E8.99458
G1 X144.985 Y128.232 E9.00629
G1 X144.854 Y128.498 E9.01615
G1 X142.588 Y132.944 E9.18213
G1 X142.249 Y133.589 E9.20636
G1 X141.786 Y134.384 E9.23696
G1 X141.255 Y135.136 E9.26758
G1 X140.469 Y136.043 E9.3075
G1 X139.925 Y136.603 E9.33347
G1 X136.533 Y139.995 E9.49302
G1 X136.052 Y140.462 E9.51531
G1 X135.364 Y141.074 E9.54594
G1 X134.626 Y141.624 E9.57655
G1 X133.633 Y142.222 E9.61511
G1 X132.954 Y142.582 E9.64067
G1 X132.802 Y142.661 E9.64637
G1 X128.703 Y144.749 E9.79937
G1 X128.055 Y145.068 E9.82339
G1 X127.212 Y145.438 E9.85401
G1 X126.34 Y145.734 E9.88464
G1 X125.195 Y146 E9.92374
G1 X124.302 Y146.155 E9.95388
G1 X119.673 Y146.887 E10.10976
G1 X119.021 Y146.981 E10.13166
G1 X118.105 Y147.072 E10.16228
G1 X117.184 Y147.084 E10.19292
G1 X116.007 Y146.982 E10.23221
G1 X115.068 Y146.847 E10.26376
G1 X110.633 Y146.145 E10.41311
G1 X109.837 Y146.008 E10.43997
G1 X108.937 Y145.812 E10.47061
G1 X108.058 Y145.539 E10.50122
G1 X106.976 Y145.081 E10.5403
G1 X106.262 Y144.731 E10.56675
G1 X102.056 Y142.588 E10.72375
G1 X101.411 Y142.249 E10.74799
G1 X100.616 Y141.786 E10.77859
G1 X99.864 Y141.255 E10.8092
G1 X98.957 Y140.469 E10.84912
G1 X98.397 Y139.925 E10.87509
G1 X95.013 Y136.541 E11.03426
G1 X94.545 Y136.06 E11.05658
G1 X93.932 Y135.373 E11.08721
G1 X93.381 Y134.635 E11.11784
G1 X92.771 Y133.623 E11.15714
G1 X92.412 Y132.944 E11.18269
G1 X90.248 Y128.697 E11.34122
G1 X89.929 Y128.048 E11.36527
G1 X89.559 Y127.205 E11.3959
G1 X89.264 Y126.333 E11.42651
G1 X89 Y125.196 E11.46534
G1 X88.845 Y124.302 E11.49551
G1 X88.135 Y119.817 E11.64654
G1 X88.02 Y119.027 E11.6731
G1 X87.928 Y118.111 E11.70371
G1 X87.916 Y117.191 E11.73432
G1 X88.016 Y116.018 E11.77347
G1 X88.129 Y115.223 E11.80018
G1 X88.881 Y110.464 E11.96043
G1 X88.928 Y110.183 E11.9699
G1 X88.975 Y109.922 E11.97873
G1 X89.034 Y109.617 E11.98906
G1 X89.248 Y108.721 E12.0197
G1 X89.539 Y107.848 E12.0503
G1 X89.859 Y107.098 E12.07742
G1 X90.008 Y106.783 E12.08901
G1 X90.146 Y106.502 E12.09943
G1 X92.412 Y102.056 E12.2654
G1 X92.751 Y101.411 E12.28964
G1 X93.214 Y100.616 E12.32023
G1 X93.745 Y99.864 E12.35085
G1 X94.531 Y98.957 E12.39077
G1 X95.075 Y98.397 E12.41674
G0 F6000 X95.362 Y98.676
G1 F1200 X98.738 Y95.299 E12.57556
G1 X99.218 Y94.832 E12.59783
G1 X99.893 Y94.232 E12.62787
G1 X100.618 Y93.693 E12.65792
G1 X101.559 Y93.128 E12.69442
G1 X102.239 Y92.768 E12.72002
G1 X106.354 Y90.67 E12.87364
G1 X106.475 Y90.609 E12.87815
G1 X107.114 Y90.294 E12.90184
G1 X107.941 Y89.931 E12.93188
G1 X108.797 Y89.643 E12.96192
G1 X109.881 Y89.393 E12.99892
G1 X110.813 Y89.232 E13.03038
G1 X115.286 Y88.525 E13.181
G1 X115.806 Y88.447 E13.19849
G1 X116.033 Y88.415 E13.20611
G1 X116.214 Y88.392 E13.21218
G1 X117.114 Y88.318 E13.24222
G1 X118.017 Y88.324 E13.27225
G1 X118.715 Y88.384 E13.29555
G1 X118.965 Y88.414 E13.30393
G1 X119.266 Y88.454 E13.31403
G1 X119.537 Y88.495 E13.32314
G1 X124.575 Y89.293 E13.4928
G1 X124.759 Y89.324 E13.499
G1 X124.982 Y89.364 E13.50654
G1 X125.285 Y89.422 E13.5168
G1 X126.163 Y89.631 E13.54682
G1 X127.02 Y89.917 E13.57687
G1 X127.719 Y90.215 E13.60214
G1 X128.037 Y90.365 E13.61383
G1 X128.316 Y90.502 E13.62417
G1 X132.757 Y92.766 E13.78997
G1 X133.402 Y93.105 E13.8142
G1 X134.182 Y93.56 E13.84424
G1 X134.919 Y94.083 E13.87429
G1 X135.764 Y94.818 E13.91154
G1 X136.324 Y95.362 E13.93751
G1 X139.701 Y98.738 E14.09633
G1 X140.168 Y99.218 E14.11861
G1 X140.768 Y99.893 E14.14864
G1 X141.307 Y100.618 E14.17869
G1 X141.872 Y101.559 E14.2152
G1 X142.306 Y102.381 E14.24611
G1 X144.327 Y106.348 E14.39419
G1 X144.706 Y107.116 E14.42268
G1 X145.07 Y107.943 E14.45273
G1 X145.358 Y108.799 E14.48277
G1 X145.606 Y109.874 E14.51946
G1 X145.76 Y110.76 E14.54937
G1 X146.47 Y115.245 E14.7004
G1 X146.584 Y116.027 E14.72669
G1 X146.673 Y116.926 E14.75673
G1 X146.683 Y117.829 E14.78677
G1 X146.588 Y118.923 E14.82329
G1 X146.475 Y119.719 E14.85003
G1 X146.451 Y119.879 E14.85541
G1 X145.709 Y124.566 E15.01325
G1 X145.678 Y124.751 E15.01948
G1 X145.641 Y124.957 E15.02645
G1 X145.584 Y125.259 E15.03667
G1 X145.377 Y126.138 E15.0667
G1 X145.094 Y126.995 E15.09672
G1 X144.775 Y127.742 E15.12374
G1 X144.624 Y128.06 E15.13545
G1 X144.498 Y128.316 E15.14494
G1 X142.234 Y132.757 E15.31073
G1 X141.895 Y133.402 E15.33497
G1 X141.44 Y134.182 E15.365
G1 X140.917 Y134.919 E15.39506
G1 X140.182 Y135.764 E15.43231
G1 X139.638 Y136.324 E15.45827
G1 X136.254 Y139.708 E15.61745
G1 X135.773 Y140.175 E15.63974
G1 X135.098 Y140.775 E15.66978
G1 X134.372 Y141.313 E15.69984
G1 X133.446 Y141.869 E15.73576
G1 X132.767 Y142.229 E15.76132
G1 X128.652 Y144.327 E15.91495
G1 X127.878 Y144.709 E15.94366
G1 X127.051 Y145.072 E15.9737
G1 X126.195 Y145.36 E16.00374
G1 X125.126 Y145.606 E16.04022
G1 X124.24 Y145.76 E16.07013
G1 X119.616 Y146.491 E16.22584
G1 X118.964 Y146.585 E16.24775
G1 X118.065 Y146.674 E16.27779
G1 X117.162 Y146.683 E16.30783
G1 X116.064 Y146.586 E16.34449
G1 X115.13 Y146.452 E16.37587
G1 X110.695 Y145.75 E16.52522
G1 X109.905 Y145.614 E16.55188
G1 X109.023 Y145.421 E16.58191
G1 X108.161 Y145.151 E16.61195
G1 X107.152 Y144.722 E16.64842
G1 X106.438 Y144.372 E16.67487
G1 X106.296 Y144.301 E16.68015
G1 X102.356 Y142.293 E16.82723
G1 X101.598 Y141.895 E16.85571
G1 X100.818 Y141.44 E16.88574
G1 X100.081 Y140.917 E16.9158
G1 X99.236 Y140.182 E16.95305
G1 X98.676 Y139.638 E16.97901
G1 X95.299 Y136.262 E17.13783
G1 X94.831 Y135.781 E17.16015
G1 X94.231 Y135.106 E17.19019
G1 X93.692 Y134.381 E17.22024
G1 X93.125 Y133.436 E17.25689
G1 X92.766 Y132.757 E17.28244
G1 X92.695 Y132.62 E17.28757
G1 X90.673 Y128.652 E17.4357
G1 X90.288 Y127.871 E17.46466
G1 X89.926 Y127.044 E17.49468
G1 X89.638 Y126.188 E17.52472
G1 X89.394 Y125.127 E17.56093
G1 X89.24 Y124.24 E17.59087
G1 X88.53 Y119.755 E17.7419
G1 X88.416 Y118.97 E17.76829
G1 X88.326 Y118.071 E17.79834
G1 X88.317 Y117.168 E17.82837
G1 X88.413 Y116.075 E17.86487
G1 X88.549 Y115.121 E17.89692
G1 X89.291 Y110.434 E18.05475
G1 X89.322 Y110.249 E18.06099
G1 X89.368 Y109.998 E18.06948
G1 X89.427 Y109.693 E18.07981
G1 X89.637 Y108.815 E18.10983
G1 X89.925 Y107.958 E18.1399
G1 X90.22 Y107.269 E18.16483
G1 X90.369 Y106.954 E18.17642
G1 X90.502 Y106.684 E18.18643
G1 X92.766 Y102.243 E18.35223
G1 X93.105 Y101.598 E18.37646
G1 X93.56 Y100.818 E18.4065
G1 X94.083 Y100.081 E18.43655
G1 X94.818 Y99.236 E18.4738
G1 X95.362 Y98.676 E18.49977
G1 F1500 E12.49977
;MESH:Ender-3 v2 Spool Nut.stl
G0 F6000 X104.234 Y111.036
G0 X102.994 Y110.251
G0 X101.865 Y114.744
G0 X101.627 Y117.32
G0 X101.687 Y118.81
G0 X101.842 Y120.122
G0 X102.23 Y121.719
G0 X102.527 Y122.769
G0 X103.016 Y123.983
G0 X103.657 Y125.264
G0 X105.01 Y127.298
G0 X105.95 Y128.379
G0 X107.296 Y129.663
G0 X108.98 Y130.894
G0 X110.123 Y131.557
G0 X112.319 Y132.505
G0 X113.566 Y132.867
G0 X114.884 Y133.114
;TYPE:WALL-INNER
G1 F1500 E18.49977
G1 F1200 X115.344 Y130.742 E18.58013
G1 X116.418 Y130.9 E18.61624
G1 X117.496 Y130.943 E18.65212
G1 X119.092 Y130.839 E18.70532
G1 X120.578 Y130.582 E18.75548
G1 X120.69 Y130.559 E18.75928
G1 X122.119 Y130.114 E18.80906
G1 X122.259 Y130.057 E18.81409
G1 X123.62 Y129.469 E18.8634
G1 X124.236 Y129.134 E18.88672
G1 X124.342 Y129.066 E18.89091
G1 X125.797 Y128.062 E18.94971
G1 X125.926 Y127.96 E18.95518
G1 X126.006 Y127.881 E18.95891
G1 X127.103 Y126.907 E19.00771
G1 X128.153 Y125.68 E19.06142
G1 X131.15 Y124.936 E19.16413
G1 X131.815 Y124.763 E19.18698
G1 X132.573 Y122.978 E19.25148
G1 X133.293 Y120.287 E19.34413
G1 X133.423 Y118.862 E19.39173
G1 X133.506 Y118.017 E19.41997
G1 X133.534 Y117.687 E19.43098
G1 X133.499 Y116.488 E19.47088
G1 X133.473 Y116.186 E19.48096
G1 X133.317 Y114.863 E19.52527
G1 X133.1 Y113.801 E19.56132
G1 X133.03 Y113.539 E19.57034
G1 X132.632 Y112.199 E19.61683
G1 X132.246 Y111.208 E19.6522
G1 X132.147 Y110.994 E19.66005
G1 X131.5 Y109.683 E19.70867
G1 X130.275 Y107.823 E19.78275
G1 X130.165 Y107.667 E19.7891
G1 X129.56 Y106.939 E19.82058
G1 X128.349 Y105.695 E19.87832
G1 X127.349 Y104.849 E19.92189
G1 X127.24 Y104.773 E19.92631
G1 X126.211 Y104.04 E19.96833
G1 X125.07 Y103.365 E20.01242
G1 X122.81 Y102.371 E20.09454
G1 X121.339 Y101.933 E20.14559
G1 X120.341 Y101.728 E20.17947
G1 X120.142 Y101.688 E20.18622
G1 X120.108 Y101.887 E20.19052
G1 X120.107 Y101.888 E20.19056
G1 X119.721 Y104.055 E20.26377
G1 X119.676 Y104.254 E20.27056
G1 X118.34 Y104.085 E20.31535
G1 X116.902 Y104.084 E20.36318
G1 X116.784 Y104.089 E20.36711
G1 X114.593 Y104.386 E20.44064
G1 X114.416 Y104.418 E20.44663
G1 X112.46 Y105.056 E20.51506
G1 X112.34 Y105.092 E20.51922
G1 X110.969 Y105.752 E20.56983
G1 X110.847 Y105.829 E20.57463
G1 X109.39 Y106.781 E20.63252
G1 X108.067 Y107.926 E20.69071
