;FLAVOR:Marlin
;TIME:8312
;Filament used: 6.07376m
;Layer height: 0.2
;MINX:86.494
;MINY:86.528
;MINZ:0.2
;MAXX:148.462
;MAXY:148.466
;MAXZ:69.6
;Generated with Cura_SteamEngine 4.7.1
M140 S60
M105
M190 S60
M104 S200
M105
M109 S200
M82 ;absolute extrusion mode
; Robbie's Ender-3 V2 Start G-Code
M140 S60
M105
M190 S60
M104 S200
M105
M109 S200
M82 ;absolute extrusion mode
M201 X500.00 Y500.00 Z100.00 E5000.00 ;Setup machine max acceleration
M203 X500.00 Y500.00 Z10.00 E50.00 ;Setup machine max feedrate
M204 P500.00 R1000.00 T500.00 ;Setup Print/Retract/Travel acceleration
M205 X8.00 Y8.00 Z0.40 E5.00 ;Setup Jerk
M220 S100 ;Reset Feedrate
M221 S100 ;Reset Flowrate

G28 ;Home

G92 E0 ;Reset Extruder
G1 Z2.0 F3000 ;Move Z Axis up
G1 X10.1 Y20 Z0.28 F5000.0 ;Move to start position
G1 X10.1 Y200.0 Z0.28 F1500.0 E15 ;Draw the first line
G1 X10.4 Y200.0 Z0.28 F5000.0 ;Move to side a little
G1 X10.4 Y20 Z0.28 F1500.0 E30 ;Draw the second line
G92 E0 ;Reset Extruder
G1 Z2.0 F3000 ;Move Z Axis up

G92 E0
G92 E0
G1 F2700 E-5
G92 E0
G92 E0
G1 F1500 E-6
;LAYER_COUNT:348
;LAYER:0
M107
G0 F6000 X94.897 Y96.312 Z0.2
;TYPE:SKIRT
G1 F1500 E0
G1 F1200 X95.43 Y95.791 E0.02479
G1 X96.822 Y94.46 E0.08885
G1 X97.388 Y93.933 E0.11457
G1 X98.361 Y93.127 E0.15659
G1 X98.509 Y93.018 E0.16271
G1 X98.713 Y92.871 E0.17107
G1 X99.034 Y92.647 E0.18409
G1 X100.747 Y91.471 E0.2532
G1 X101.332 Y91.081 E0.27658
G1 X102.437 Y90.435 E0.31915
G1 X102.788 Y90.256 E0.33226
G1 X103.043 Y90.13 E0.34172
G1 X105.027 Y89.182 E0.41485
G1 X105.839 Y88.808 E0.44459
G1 X107.044 Y88.338 E0.48761
G1 X107.338 Y88.245 E0.49786
G1 X107.892 Y88.078 E0.51711
G1 X109.919 Y87.491 E0.5873
G1 X110.712 Y87.274 E0.61464
G1 X111.913 Y87.017 E0.65549
G1 X112.157 Y86.979 E0.6637
G1 X112.404 Y86.943 E0.67201
G1 X112.792 Y86.893 E0.68502
G1 X114.543 Y86.681 E0.74368
G1 X115.343 Y86.595 E0.77044
G1 X116.334 Y86.534 E0.80347
G1 X116.72 Y86.528 E0.81631
G1 X117.104 Y86.529 E0.82908
G1 X118.55 Y86.557 E0.87718
G1 X118.758 Y86.563 E0.8841
G1 X119.599 Y86.596 E0.91209
G1 X120.334 Y86.635 E0.93658
G1 X121.576 Y86.772 E0.97814
G1 X121.683 Y86.79 E0.98174
G1 X121.95 Y86.839 E0.99077
G1 X122.527 Y86.951 E1.01032
G1 X124.614 Y87.381 E1.08119
G1 X125.499 Y87.577 E1.11134
G1 X126.673 Y87.908 E1.15191
G1 X126.924 Y87.994 E1.16074
G1 X127.165 Y88.079 E1.16924
G1 X127.41 Y88.17 E1.17793
G1 X129.39 Y88.92 E1.24835
G1 X130.025 Y89.171 E1.27106
G1 X130.881 Y89.553 E1.30224
G1 X131.084 Y89.654 E1.30978
G1 X131.377 Y89.805 E1.32074
G1 X131.532 Y89.888 E1.32659
G1 X131.772 Y90.021 E1.33572
G1 X132.163 Y90.244 E1.35069
G1 X132.328 Y90.341 E1.35705
G1 X132.354 Y90.354 E1.35802
G1 X133.456 Y90.997 E1.40046
G1 X133.813 Y91.201 E1.41413
G1 X134.443 Y91.572 E1.43845
G1 X135.23 Y92.082 E1.46964
G1 X135.721 Y92.453 E1.49011
G1 X136.411 Y93.004 E1.51948
G1 X137.795 Y94.142 E1.57907
G1 X137.929 Y94.254 E1.58488
G1 X138.466 Y94.71 E1.60831
G1 X139.326 Y95.524 E1.6477
G1 X139.567 Y95.778 E1.65934
G1 X139.809 Y96.041 E1.67123
G1 X141.24 Y97.651 E1.74287
G1 X141.353 Y97.78 E1.74858
G1 X141.825 Y98.328 E1.77263
G1 X142.58 Y99.313 E1.81391
G1 X142.657 Y99.426 E1.81846
G1 X142.812 Y99.66 E1.82779
G1 X143.085 Y100.083 E1.84454
G1 X144.125 Y101.725 E1.90919
G1 X144.217 Y101.873 E1.91498
G1 X144.612 Y102.519 E1.94017
G1 X145.186 Y103.586 E1.98046
G1 X145.307 Y103.844 E1.98994
G1 X145.452 Y104.167 E2.00172
G1 X146.295 Y106.126 E2.07265
G1 X146.614 Y106.893 E2.10028
G1 X146.937 Y107.774 E2.13149
G1 X147.111 Y108.383 E2.15255
G1 X147.292 Y109.091 E2.17686
G1 X147.534 Y110.103 E2.21147
G1 X147.743 Y110.942 E2.24023
G1 X147.837 Y111.348 E2.25409
G1 X147.858 Y111.43 E2.2569
G1 X148.046 Y112.349 E2.2881
G1 X148.134 Y113.027 E2.31084
G1 X148.221 Y113.916 E2.34055
G1 X148.237 Y114.099 E2.34666
G1 X148.391 Y116.001 E2.41013
G1 X148.403 Y116.163 E2.41553
G1 X148.45 Y116.874 E2.43923
G1 X148.462 Y118.118 E2.48061
G1 X148.449 Y118.394 E2.4898
G1 X148.429 Y118.726 E2.50086
G1 X148.263 Y120.875 E2.57255
G1 X148.249 Y121.04 E2.57806
G1 X148.181 Y121.772 E2.60251
G1 X148.073 Y122.593 E2.63005
G1 X148.063 Y122.652 E2.63204
G1 X147.922 Y123.35 E2.65573
G1 X147.754 Y124.055 E2.67983
G1 X147.294 Y125.904 E2.7432
G1 X147.109 Y126.605 E2.76732
G1 X146.73 Y127.773 E2.80816
G1 X146.618 Y128.062 E2.81847
G1 X146.489 Y128.379 E2.82985
G1 X145.584 Y130.512 E2.90692
G1 X145.282 Y131.197 E2.93181
G1 X144.688 Y132.353 E2.97504
G1 X144.494 Y132.679 E2.98766
G1 X144.265 Y133.049 E3.00213
G1 X143.075 Y134.935 E3.0763
G1 X142.942 Y135.14 E3.08443
G1 X142.63 Y135.611 E3.10322
G1 X142.143 Y136.289 E3.13099
G1 X141.882 Y136.614 E3.14485
G1 X141.73 Y136.796 E3.15274
G1 X141.415 Y137.16 E3.16875
G1 X139.93 Y138.83 E3.24308
G1 X139.478 Y139.323 E3.26532
G1 X138.994 Y139.818 E3.28835
G1 X138.556 Y140.22 E3.30812
G1 X138.389 Y140.365 E3.31548
G1 X138.208 Y140.519 E3.32338
G1 X137.988 Y140.701 E3.33288
G1 X136.204 Y142.157 E3.40947
G1 X135.67 Y142.581 E3.43215
G1 X134.706 Y143.265 E3.47146
G1 X134.505 Y143.392 E3.47937
G1 X134.238 Y143.555 E3.48977
G1 X133.945 Y143.729 E3.50111
G1 X132.205 Y144.736 E3.56797
G1 X131.435 Y145.166 E3.59731
G1 X130.34 Y145.701 E3.63784
G1 X130.214 Y145.754 E3.64239
G1 X129.957 Y145.858 E3.65161
G1 X129.566 Y146.011 E3.66557
G1 X127.5 Y146.793 E3.73905
G1 X126.81 Y147.041 E3.76343
G1 X125.914 Y147.32 E3.79465
G1 X125.337 Y147.457 E3.81437
G1 X123.458 Y147.846 E3.87819
G1 X123.393 Y147.857 E3.88038
G1 X122.05 Y148.13 E3.92597
G1 X121.124 Y148.278 E3.95716
G1 X120.494 Y148.332 E3.97819
G1 X119.522 Y148.388 E4.01057
G1 X118.536 Y148.429 E4.04339
G1 X118.313 Y148.436 E4.05081
G1 X116.903 Y148.466 E4.09772
G1 X115.542 Y148.41 E4.14302
G1 X114.668 Y148.32 E4.17225
G1 X114.466 Y148.297 E4.17901
G1 X112.929 Y148.11 E4.23051
G1 X112.088 Y147.997 E4.25873
G1 X110.832 Y147.752 E4.30129
G1 X110.394 Y147.638 E4.31635
G1 X110.017 Y147.533 E4.32936
G1 X107.908 Y146.923 E4.40238
G1 X107.194 Y146.708 E4.42718
G1 X106.309 Y146.399 E4.45836
G1 X105.861 Y146.21 E4.47453
G1 X105.623 Y146.102 E4.48323
G1 X105.088 Y145.852 E4.50287
G1 X103.34 Y145.014 E4.56734
G1 X102.572 Y144.634 E4.59584
G1 X101.467 Y144.004 E4.63815
G1 X101.113 Y143.774 E4.65219
G1 X100.867 Y143.609 E4.66204
G1 X99.058 Y142.362 E4.73512
G1 X98.483 Y141.955 E4.75855
G1 X97.446 Y141.123 E4.80277
G1 X97.189 Y140.887 E4.81437
G1 X96.822 Y140.541 E4.83115
G1 X95.41 Y139.18 E4.89638
G1 X94.804 Y138.578 E4.92479
G1 X93.976 Y137.656 E4.96601
G1 X93.82 Y137.461 E4.97431
G1 X93.679 Y137.281 E4.98192
G1 X93.49 Y137.033 E4.99229
G1 X92.131 Y135.224 E5.06754
G1 X91.705 Y134.64 E5.09158
G1 X91.019 Y133.576 E5.13369
G1 X90.929 Y133.417 E5.13977
G1 X90.803 Y133.187 E5.14849
G1 X90.602 Y132.81 E5.1627
G1 X89.607 Y130.906 E5.23415
G1 X89.294 Y130.286 E5.25725
G1 X88.786 Y129.116 E5.29968
G1 X88.698 Y128.876 E5.30818
G1 X88.531 Y128.398 E5.32502
G1 X87.878 Y126.448 E5.39342
G1 X87.608 Y125.603 E5.42292
G1 X87.379 Y124.774 E5.45153
G1 X87.346 Y124.633 E5.45634
G1 X87.226 Y124.049 E5.47617
G1 X87.076 Y123.204 E5.50472
G1 X86.81 Y121.57 E5.55978
G1 X86.785 Y121.409 E5.5652
G1 X86.686 Y120.736 E5.58782
G1 X86.588 Y119.778 E5.61985
G1 X86.535 Y118.873 E5.65001
G1 X86.525 Y118.679 E5.65647
G1 X86.512 Y118.323 E5.66831
G1 X86.494 Y117.638 E5.69111
G1 X86.495 Y117.017 E5.71176
G1 X86.515 Y116.354 E5.73382
G1 X86.528 Y116.058 E5.74368
G1 X86.566 Y115.393 E5.76583
G1 X86.663 Y114.437 E5.79779
G1 X86.816 Y113.392 E5.83292
G1 X87.101 Y111.644 E5.89182
G1 X87.244 Y110.828 E5.91938
G1 X87.543 Y109.566 E5.96251
G1 X87.61 Y109.343 E5.97026
G1 X87.787 Y108.79 E5.98957
G1 X88.454 Y106.785 E6.05985
G1 X88.691 Y106.101 E6.08393
G1 X89.172 Y104.935 E6.12588
G1 X89.354 Y104.563 E6.13965
G1 X89.557 Y104.166 E6.15448
G1 X90.625 Y102.142 E6.2306
G1 X90.922 Y101.597 E6.25124
G1 X91.112 Y101.263 E6.26402
G1 X91.612 Y100.486 E6.29475
G1 X91.793 Y100.229 E6.30521
G1 X91.97 Y99.984 E6.31526
G1 X93.326 Y98.167 E6.39067
G1 X93.805 Y97.542 E6.41686
G1 X94.378 Y96.856 E6.44659
G1 X94.446 Y96.781 E6.44996
G1 X94.897 Y96.312 E6.4716
G0 F6000 X95.177 Y96.598
G1 F1200 X95.707 Y96.08 E6.49625
G1 X97.095 Y94.753 E6.56012
G1 X97.661 Y94.226 E6.58584
G1 X98.598 Y93.449 E6.62632
G1 X98.746 Y93.34 E6.63244
G1 X98.943 Y93.198 E6.64051
G1 X99.26 Y92.976 E6.65339
G1 X100.849 Y91.885 E6.71749
G1 X101.554 Y91.414 E6.74569
G1 X102.618 Y90.791 E6.7867
G1 X102.969 Y90.612 E6.79981
G1 X103.215 Y90.491 E6.80893
G1 X105.347 Y89.473 E6.88751
G1 X106.005 Y89.171 E6.91159
G1 X107.167 Y88.719 E6.95305
G1 X107.454 Y88.628 E6.96307
G1 X108.003 Y88.462 E6.98215
G1 X110.03 Y87.875 E7.05233
G1 X110.817 Y87.66 E7.07947
G1 X111.975 Y87.412 E7.11886
G1 X112.219 Y87.374 E7.12707
G1 X112.457 Y87.34 E7.13507
G1 X112.84 Y87.29 E7.14791
G1 X114.745 Y87.06 E7.21173
G1 X115.385 Y86.992 E7.23314
G1 X116.34 Y86.934 E7.26496
G1 X116.726 Y86.928 E7.2778
G1 X117.096 Y86.929 E7.29011
G1 X118.542 Y86.957 E7.33821
G1 X118.743 Y86.963 E7.3449
G1 X119.578 Y86.996 E7.37269
G1 X120.313 Y87.035 E7.39717
G1 X121.509 Y87.167 E7.4372
G1 X121.616 Y87.185 E7.4408
G1 X121.874 Y87.232 E7.44953
G1 X122.446 Y87.343 E7.46891
G1 X124.698 Y87.808 E7.54539
G1 X125.412 Y87.967 E7.56972
G1 X126.544 Y88.286 E7.60883
G1 X126.795 Y88.372 E7.61766
G1 X127.269 Y88.544 E7.63443
G1 X129.096 Y89.235 E7.6994
G1 X129.878 Y89.543 E7.72735
G1 X130.703 Y89.911 E7.7574
G1 X130.906 Y90.012 E7.76494
G1 X131.188 Y90.157 E7.77549
G1 X131.343 Y90.24 E7.78133
G1 X131.575 Y90.368 E7.79015
G1 X131.961 Y90.589 E7.80494
G1 X133.165 Y91.291 E7.85129
G1 X133.61 Y91.546 E7.86835
G1 X134.24 Y91.917 E7.89267
G1 X135.012 Y92.418 E7.92328
G1 X135.472 Y92.765 E7.94244
G1 X136.157 Y93.313 E7.97162
G1 X137.541 Y94.451 E8.03122
G1 X138.207 Y95.015 E8.06024
G1 X139.036 Y95.799 E8.09819
G1 X139.277 Y96.053 E8.10984
G1 X139.51 Y96.307 E8.1213
G1 X141.05 Y98.041 E8.19844
G1 X141.522 Y98.589 E8.22249
G1 X142.25 Y99.538 E8.26227
G1 X142.327 Y99.651 E8.26682
G1 X142.476 Y99.876 E8.2758
G1 X142.747 Y100.297 E8.29245
G1 X143.787 Y101.939 E8.3571
G1 X144.27 Y102.727 E8.38784
G1 X144.824 Y103.756 E8.42671
G1 X144.945 Y104.014 E8.43619
G1 X145.085 Y104.325 E8.44753
G1 X145.982 Y106.412 E8.52308
G1 X146.245 Y107.046 E8.54591
G1 X146.561 Y107.911 E8.57654
G1 X146.724 Y108.483 E8.59632
G1 X146.905 Y109.191 E8.62063
G1 X147.146 Y110.2 E8.65513
G1 X147.355 Y111.039 E8.68389
G1 X147.447 Y111.437 E8.69748
G1 X147.47 Y111.527 E8.70057
G1 X147.654 Y112.429 E8.73119
G1 X147.736 Y113.066 E8.75255
G1 X147.823 Y113.955 E8.78226
G1 X148.004 Y116.19 E8.85684
G1 X148.051 Y116.901 E8.88054
G1 X148.062 Y118.099 E8.92038
G1 X148.039 Y118.561 E8.93577
G1 X148.02 Y118.836 E8.94494
G1 X147.851 Y121.003 E9.01723
G1 X147.783 Y121.735 E9.04168
G1 X147.679 Y122.526 E9.06822
G1 X147.669 Y122.585 E9.07021
G1 X147.533 Y123.257 E9.09301
G1 X147.366 Y123.959 E9.11701
G1 X146.946 Y125.651 E9.175
G1 X146.722 Y126.503 E9.2043
G1 X146.357 Y127.628 E9.24363
G1 X146.245 Y127.917 E9.25394
G1 X146.121 Y128.223 E9.26492
G1 X145.279 Y130.21 E9.3367
G1 X144.916 Y131.035 E9.36668
G1 X144.344 Y132.149 E9.40833
G1 X144.153 Y132.469 E9.42072
G1 X143.927 Y132.835 E9.43503
G1 X142.737 Y134.721 E9.5092
G1 X142.609 Y134.919 E9.51704
G1 X142.297 Y135.39 E9.53584
G1 X141.827 Y136.044 E9.56262
G1 X141.575 Y136.358 E9.57601
G1 X141.423 Y136.54 E9.5839
G1 X141.183 Y136.819 E9.59614
G1 X139.746 Y138.436 E9.66809
G1 X139.635 Y138.559 E9.6736
G1 X139.183 Y139.052 E9.69585
G1 X138.717 Y139.53 E9.71805
G1 X138.294 Y139.918 E9.73714
G1 X138.127 Y140.063 E9.7445
G1 X137.735 Y140.391 E9.7615
G1 X136.07 Y141.751 E9.833
G1 X135.421 Y142.267 E9.86058
G1 X134.492 Y142.927 E9.89848
G1 X134.291 Y143.054 E9.90639
G1 X134.034 Y143.211 E9.91641
G1 X133.745 Y143.382 E9.92757
G1 X132.005 Y144.389 E9.99444
G1 X131.861 Y144.471 E9.99995
G1 X131.241 Y144.817 E10.02357
G1 X130.185 Y145.332 E10.06264
G1 X130.059 Y145.385 E10.06719
G1 X129.812 Y145.485 E10.07605
G1 X129.313 Y145.679 E10.09386
G1 X127.534 Y146.353 E10.15713
G1 X127.364 Y146.416 E10.16316
G1 X126.674 Y146.664 E10.18755
G1 X125.795 Y146.938 E10.21817
G1 X125.256 Y147.065 E10.23659
G1 X123.377 Y147.454 E10.30041
G1 X123.317 Y147.464 E10.30244
G1 X121.97 Y147.738 E10.34816
G1 X121.061 Y147.882 E10.37877
G1 X120.471 Y147.933 E10.39846
G1 X119.681 Y147.979 E10.42478
G1 X119.505 Y147.988 E10.43064
G1 X118.519 Y148.029 E10.46347
G1 X118.304 Y148.036 E10.47062
G1 X116.894 Y148.066 E10.51753
G1 X115.583 Y148.012 E10.56117
G1 X114.709 Y147.922 E10.59039
G1 X114.515 Y147.9 E10.59689
G1 X112.835 Y147.695 E10.65318
G1 X112.141 Y147.601 E10.67647
G1 X110.931 Y147.365 E10.71747
G1 X110.501 Y147.253 E10.73225
G1 X110.241 Y147.181 E10.74123
G1 X108.024 Y146.54 E10.81798
G1 X107.31 Y146.325 E10.84279
G1 X106.024 Y145.845 E10.88844
G1 X105.792 Y145.739 E10.89692
G1 X105.261 Y145.491 E10.91642
G1 X103.384 Y144.591 E10.98565
G1 X102.749 Y144.276 E11.00923
G1 X101.685 Y143.669 E11.04997
G1 X101.331 Y143.439 E11.06401
G1 X101.094 Y143.28 E11.0735
G1 X99.289 Y142.036 E11.14641
G1 X98.714 Y141.629 E11.16985
G1 X97.715 Y140.827 E11.21246
G1 X97.463 Y140.596 E11.22383
G1 X97.1 Y140.253 E11.24044
G1 X95.564 Y138.771 E11.31143
G1 X95.086 Y138.295 E11.33386
G1 X94.289 Y137.406 E11.37357
G1 X94.133 Y137.211 E11.38188
G1 X93.997 Y137.037 E11.38922
G1 X93.81 Y136.792 E11.39948
G1 X92.454 Y134.988 E11.47454
G1 X92.028 Y134.404 E11.49858
G1 X91.367 Y133.379 E11.53915
G1 X91.277 Y133.22 E11.54522
G1 X91.155 Y132.998 E11.55365
G1 X90.956 Y132.624 E11.56774
G1 X89.964 Y130.726 E11.63897
G1 X89.651 Y130.106 E11.66207
G1 X89.162 Y128.978 E11.70296
G1 X89.014 Y128.571 E11.71736
G1 X88.911 Y128.271 E11.72791
G1 X88.208 Y126.17 E11.8016
G1 X87.989 Y125.482 E11.82562
G1 X87.769 Y124.683 E11.85318
G1 X87.736 Y124.542 E11.858
G1 X87.62 Y123.979 E11.87711
G1 X87.47 Y123.134 E11.90566
G1 X87.205 Y121.506 E11.96052
G1 X87.082 Y120.678 E11.98836
G1 X86.987 Y119.755 E12.01922
G1 X86.934 Y118.85 E12.04937
G1 X86.917 Y118.466 E12.06216
G1 X86.894 Y117.627 E12.09007
G1 X86.895 Y117.029 E12.10996
G1 X86.915 Y116.366 E12.13202
G1 X86.927 Y116.081 E12.14151
G1 X86.965 Y115.416 E12.16367
G1 X87.058 Y114.495 E12.19445
G1 X87.183 Y113.636 E12.22333
G1 X87.211 Y113.456 E12.22938
G1 X87.496 Y111.708 E12.28829
G1 X87.638 Y110.897 E12.31568
G1 X87.926 Y109.681 E12.35724
G1 X87.993 Y109.458 E12.36498
G1 X88.061 Y109.241 E12.37255
G1 X88.167 Y108.916 E12.38392
G1 X88.832 Y106.916 E12.45402
G1 X89.069 Y106.232 E12.47809
G1 X89.532 Y105.108 E12.51853
G1 X89.595 Y104.977 E12.52336
G1 X89.71 Y104.745 E12.53197
G1 X89.976 Y104.227 E12.55134
G1 X90.976 Y102.334 E12.62255
G1 X91.273 Y101.789 E12.64319
G1 X91.457 Y101.465 E12.65558
G1 X91.939 Y100.716 E12.68521
G1 X92.12 Y100.459 E12.69566
G1 X92.291 Y100.223 E12.70536
G1 X93.737 Y98.287 E12.78573
G1 X94.122 Y97.786 E12.80674
G1 X94.674 Y97.125 E12.83539
G1 X94.742 Y97.05 E12.83875
G1 X95.177 Y96.598 E12.85962
G0 F6000 X95.457 Y96.884
G1 F1200 X95.983 Y96.369 E12.8841
G1 X97.265 Y95.142 E12.94312
G1 X97.933 Y94.519 E12.9735
G1 X98.835 Y93.771 E13.01248
G1 X98.983 Y93.662 E13.01859
G1 X99.173 Y93.526 E13.02636
G1 X99.487 Y93.306 E13.03911
G1 X101.191 Y92.137 E13.10784
G1 X101.776 Y91.747 E13.13123
G1 X102.8 Y91.147 E13.1707
G1 X103.151 Y90.968 E13.18381
G1 X103.387 Y90.852 E13.19255
G1 X105.371 Y89.904 E13.26569
G1 X105.514 Y89.837 E13.27094
G1 X106.172 Y89.535 E13.29502
G1 X107.29 Y89.099 E13.33493
G1 X107.57 Y89.011 E13.3447
G1 X108.115 Y88.847 E13.36363
G1 X110.295 Y88.216 E13.43911
G1 X110.922 Y88.045 E13.46072
G1 X112.036 Y87.807 E13.49861
G1 X112.28 Y87.769 E13.50683
G1 X112.509 Y87.736 E13.51452
G1 X112.888 Y87.687 E13.52723
