;FLAVOR:Marlin
;TIME:6648
;Filament used: 4.91433m
;Layer height: 0.2
;MINX:91.644
;MINY:91.645
;MINZ:0.2
;MAXX:143.356
;MAXY:143.358
;MAXZ:69.6
;Generated with Cura_SteamEngine 4.7.1
M140 S60
M105
M190 S60
M104 S200
M105
M109 S200
M82 ;absolute extrusion mode
; Robbie's Ender-3 V2 Start G-Code
M140 S60
M105
M190 S60
M104 S200
M105
M109 S200
M82 ;absolute extrusion mode
M201 X500.00 Y500.00 Z100.00 E5000.00 ;Setup machine max acceleration
M203 X500.00 Y500.00 Z10.00 E50.00 ;Setup machine max feedrate
M204 P500.00 R1000.00 T500.00 ;Setup Print/Retract/Travel acceleration
M205 X8.00 Y8.00 Z0.40 E5.00 ;Setup Jerk
M220 S100 ;Reset Feedrate
M221 S100 ;Reset Flowrate

G28 ;Home

G92 E0 ;Reset Extruder
G1 Z2.0 F3000 ;Move Z Axis up
G1 X10.1 Y20 Z0.28 F5000.0 ;Move to start position
G1 X10.1 Y200.0 Z0.28 F1500.0 E15 ;Draw the first line
G1 X10.4 Y200.0 Z0.28 F5000.0 ;Move to side a little
G1 X10.4 Y20 Z0.28 F1500.0 E30 ;Draw the second line
G92 E0 ;Reset Extruder
G1 Z2.0 F3000 ;Move Z Axis up

G92 E0
G92 E0
G1 F2700 E-5
G92 E0
G92 E0
G1 F1500 E-6
;LAYER_COUNT:348
;LAYER:0
M107
G0 F6000 X98.934 Y99.503 Z0.2
;TYPE:SKIRT
G1 F1500 E0
G1 F1200 X99.397 Y99.041 E0.02175
G1 X99.882 Y98.569 E0.04426
G1 X100.378 Y98.115 E0.06663
G1 X100.705 Y97.836 E0.08093
G1 X101.035 Y97.564 E0.09515
G1 X101.37 Y97.295 E0.10944
G1 X101.959 Y96.831 E0.13438
G1 X102.505 Y96.428 E0.15695
G1 X102.841 Y96.197 E0.17051
G1 X103.197 Y95.961 E0.18472
G1 X103.583 Y95.711 E0.20001
G1 X104.041 Y95.422 E0.21802
G1 X104.419 Y95.194 E0.23271
G1 X104.748 Y95.01 E0.24524
G1 X105.745 Y94.476 E0.28286
G1 X106.121 Y94.284 E0.2969
G1 X106.63 Y94.036 E0.31574
G1 X107.132 Y93.807 E0.33409
G1 X107.35 Y93.714 E0.34197
G1 X107.623 Y93.602 E0.35178
G1 X107.976 Y93.463 E0.3644
G1 X108.542 Y93.246 E0.38456
G1 X108.739 Y93.173 E0.39155
G1 X109.151 Y93.024 E0.40612
G1 X109.726 Y92.833 E0.42628
G1 X110.092 Y92.723 E0.43899
G1 X110.417 Y92.631 E0.45022
G1 X110.877 Y92.508 E0.46606
G1 X111.735 Y92.291 E0.49549
G1 X112.264 Y92.172 E0.51353
G1 X112.444 Y92.136 E0.51963
G1 X112.787 Y92.073 E0.53123
G1 X113.206 Y92.003 E0.54536
G1 X113.69 Y91.927 E0.56166
G1 X114.381 Y91.828 E0.58487
G1 X114.978 Y91.759 E0.60486
G1 X115.16 Y91.743 E0.61094
G1 X115.461 Y91.721 E0.62098
G1 X115.879 Y91.696 E0.63491
G1 X116.606 Y91.659 E0.65912
G1 X117.006 Y91.645 E0.67243
G1 X117.671 Y91.645 E0.69455
G1 X118.778 Y91.679 E0.73138
G1 X119.173 Y91.698 E0.74454
G1 X119.742 Y91.736 E0.7635
G1 X120.559 Y91.822 E0.79083
G1 X121.353 Y91.935 E0.8175
G1 X121.64 Y91.979 E0.82716
G1 X121.836 Y92.011 E0.83376
G1 X122.498 Y92.127 E0.85612
G1 X123.066 Y92.242 E0.87539
G1 X123.292 Y92.294 E0.88311
G1 X123.623 Y92.376 E0.89445
G1 X124.159 Y92.517 E0.91288
G1 X124.352 Y92.57 E0.91954
G1 X125.081 Y92.776 E0.94473
G1 X125.663 Y92.958 E0.96502
G1 X125.893 Y93.037 E0.97311
G1 X126.19 Y93.143 E0.98359
G1 X126.496 Y93.258 E0.99447
G1 X126.77 Y93.366 E1.00426
G1 X127.692 Y93.741 E1.03737
G1 X128.353 Y94.035 E1.06143
G1 X129.15 Y94.422 E1.0909
G1 X129.464 Y94.581 E1.1026
G1 X130.046 Y94.887 E1.12447
G1 X130.625 Y95.214 E1.14659
G1 X130.805 Y95.323 E1.15359
G1 X131.024 Y95.459 E1.16216
G1 X131.344 Y95.663 E1.17478
G1 X131.625 Y95.845 E1.18592
G1 X132.362 Y96.338 E1.21541
G1 X132.871 Y96.7 E1.23619
G1 X133.047 Y96.833 E1.24352
G1 X133.262 Y97 E1.25258
G1 X133.551 Y97.23 E1.26486
G1 X133.937 Y97.544 E1.28141
G1 X134.484 Y97.999 E1.30508
G1 X134.975 Y98.433 E1.32687
G1 X135.12 Y98.569 E1.33348
G1 X135.286 Y98.728 E1.34113
G1 X135.6 Y99.036 E1.35576
G1 X135.952 Y99.389 E1.37234
G1 X136.437 Y99.888 E1.39548
G1 X136.884 Y100.377 E1.41752
G1 X137.16 Y100.699 E1.43163
G1 X137.269 Y100.83 E1.43729
G1 X137.74 Y101.413 E1.46222
G1 X138.19 Y101.987 E1.48648
G1 X138.532 Y102.449 E1.5056
G1 X138.655 Y102.624 E1.51271
G1 X138.827 Y102.875 E1.52283
G1 X139.029 Y103.181 E1.53503
G1 X139.302 Y103.602 E1.55172
G1 X139.682 Y104.206 E1.57545
G1 X139.964 Y104.681 E1.59382
G1 X140.065 Y104.861 E1.60069
G1 X140.218 Y105.144 E1.61139
G1 X140.427 Y105.545 E1.62643
G1 X140.628 Y105.942 E1.64123
G1 X140.958 Y106.614 E1.66613
G1 X141.232 Y107.218 E1.68819
G1 X141.319 Y107.426 E1.69569
G1 X141.402 Y107.631 E1.70304
G1 X141.534 Y107.965 E1.71499
G1 X141.669 Y108.317 E1.72753
G1 X141.973 Y109.143 E1.7568
G1 X142.153 Y109.675 E1.77548
G1 X142.206 Y109.846 E1.78144
G1 X142.307 Y110.191 E1.79339
G1 X142.398 Y110.525 E1.80491
G1 X142.544 Y111.076 E1.82387
G1 X142.706 Y111.722 E1.84602
G1 X142.832 Y112.288 E1.8653
G1 X142.883 Y112.549 E1.87415
G1 X142.934 Y112.828 E1.88358
G1 X142.992 Y113.179 E1.89541
G1 X143.075 Y113.706 E1.91316
G1 X143.162 Y114.307 E1.93336
G1 X143.21 Y114.687 E1.9461
G1 X143.224 Y114.815 E1.95038
G1 X143.249 Y115.075 E1.95907
G1 X143.273 Y115.356 E1.96845
G1 X143.296 Y115.679 E1.97922
G1 X143.319 Y116.091 E1.99294
G1 X143.356 Y116.985 E2.0227
G1 X143.354 Y117.922 E2.05387
G1 X143.272 Y118.857 E2.08508
G1 X143.11 Y119.781 E2.11628
G1 X142.922 Y120.515 E2.14149
G1 X142.173 Y123.076 E2.23023
G1 X141.523 Y125.556 E2.3155
G1 X141.23 Y126.814 E2.35847
G1 X141.048 Y127.555 E2.38384
G1 X140.785 Y128.455 E2.41503
G1 X140.447 Y129.33 E2.44623
G1 X140.036 Y130.173 E2.47742
G1 X139.696 Y130.757 E2.4999
G1 X139.199 Y131.553 E2.53111
G1 X138.998 Y131.862 E2.54337
G1 X138.656 Y132.371 E2.56377
G1 X138.315 Y132.851 E2.58335
G1 X138.175 Y133.037 E2.59109
G1 X138.001 Y133.262 E2.60055
G1 X137.812 Y133.499 E2.61063
G1 X137.418 Y133.985 E2.63144
G1 X137.02 Y134.463 E2.65213
G1 X136.629 Y134.907 E2.67181
G1 X136.474 Y135.074 E2.67939
G1 X136.264 Y135.294 E2.6895
G1 X135.913 Y135.652 E2.70618
G1 X135.605 Y135.957 E2.72059
G1 X135.092 Y136.455 E2.74437
G1 X134.584 Y136.918 E2.76724
G1 X134.289 Y137.168 E2.7801
G1 X134.001 Y137.405 E2.7925
G1 X133.577 Y137.748 E2.81064
G1 X133.026 Y138.181 E2.83395
G1 X132.526 Y138.551 E2.85464
G1 X132.357 Y138.669 E2.86149
G1 X132.133 Y138.822 E2.87052
G1 X131.83 Y139.022 E2.88259
G1 X131.545 Y139.207 E2.89389
G1 X130.796 Y139.68 E2.92335
G1 X130.264 Y139.985 E2.94375
G1 X130.268 Y139.992 E2.94402
G1 X130.09 Y140.091 E2.95079
G1 X129.825 Y140.234 E2.96081
G1 X129.47 Y140.418 E2.97411
G1 X129.063 Y140.624 E2.98928
G1 X128.397 Y140.952 E3.01397
G1 X127.835 Y141.21 E3.03454
G1 X127.663 Y141.283 E3.04075
G1 X127.415 Y141.384 E3.04966
G1 X127.084 Y141.515 E3.0615
G1 X126.704 Y141.662 E3.07505
G1 X126.529 Y141.728 E3.08127
G1 X125.914 Y141.954 E3.10307
G1 X125.395 Y142.13 E3.12129
G1 X125.193 Y142.193 E3.12833
G1 X124.888 Y142.283 E3.13891
G1 X124.464 Y142.402 E3.15355
G1 X124.12 Y142.494 E3.1654
G1 X123.28 Y142.706 E3.19421
G1 X122.697 Y142.835 E3.21407
G1 X122.46 Y142.881 E3.2221
G1 X122.199 Y142.929 E3.23093
G1 X121.493 Y143.045 E3.25473
G1 X121.31 Y143.073 E3.26088
G1 X120.631 Y143.171 E3.2837
G1 X120.056 Y143.239 E3.30296
G1 X119.913 Y143.252 E3.30773
G1 X119.6 Y143.276 E3.31817
G1 X118.988 Y143.313 E3.33857
G1 X118.582 Y143.332 E3.35209
G1 X117.862 Y143.358 E3.37605
G1 X116.916 Y143.351 E3.40751
G1 X116.586 Y143.331 E3.41851
G1 X115.945 Y143.283 E3.43989
G1 X114.966 Y143.198 E3.47257
G1 X114.127 Y143.114 E3.50062
G1 X112.941 Y142.928 E3.54055
G1 X111.994 Y142.726 E3.57275
G1 X111.153 Y142.533 E3.60145
G1 X111.001 Y142.497 E3.60665
G1 X110.293 Y142.323 E3.6309
G1 X109.332 Y142.04 E3.66422
G1 X109.055 Y141.942 E3.67399
G1 X108.391 Y141.696 E3.69754
G1 X108.061 Y141.569 E3.7093
G1 X107.372 Y141.294 E3.73397
G1 X106.758 Y141.027 E3.75624
G1 X106.529 Y140.919 E3.76466
G1 X106.323 Y140.819 E3.77228
G1 X106.048 Y140.682 E3.7825
G1 X105.609 Y140.458 E3.79889
G1 X104.947 Y140.11 E3.82377
G1 X103.888 Y139.475 E3.86484
G1 X103.235 Y139.031 E3.8911
G1 X102.427 Y138.466 E3.92389
G1 X101.991 Y138.152 E3.94176
G1 X101.705 Y137.939 E3.95362
G1 X101.328 Y137.648 E3.96946
G1 X100.741 Y137.162 E3.99481
G1 X100.534 Y136.978 E4.00402
G1 X100.343 Y136.804 E4.01262
G1 X99.463 Y135.984 E4.05262
G1 X98.907 Y135.451 E4.07824
G1 X98.243 Y134.757 E4.11019
G1 X98.103 Y134.597 E4.11726
G1 X97.567 Y133.935 E4.14559
G1 X97.278 Y133.548 E4.16165
G1 X96.043 Y131.848 E4.23154
G1 X95.637 Y131.273 E4.25495
G1 X94.992 Y130.242 E4.2954
G1 X94.88 Y130.039 E4.30311
G1 X94.743 Y129.783 E4.31277
G1 X94.552 Y129.413 E4.32662
G1 X94.364 Y129.039 E4.34054
G1 X94.033 Y128.363 E4.36557
G1 X93.773 Y127.792 E4.38644
G1 X93.688 Y127.59 E4.39373
G1 X93.591 Y127.351 E4.40231
G1 X93.453 Y127.001 E4.41482
G1 X93.333 Y126.689 E4.42594
G1 X93.049 Y125.92 E4.45321
G1 X92.855 Y125.348 E4.4733
G1 X92.788 Y125.13 E4.48088
G1 X92.708 Y124.856 E4.49038
G1 X92.587 Y124.42 E4.50543
G1 X92.513 Y124.142 E4.51499
G1 X92.292 Y123.266 E4.54504
G1 X92.157 Y122.659 E4.56572
G1 X92.11 Y122.415 E4.57399
G1 X92.068 Y122.184 E4.5818
G1 X92.017 Y121.882 E4.59199
G1 X91.924 Y121.287 E4.61202
G1 X91.835 Y120.663 E4.63298
G1 X91.795 Y120.352 E4.64341
G1 X91.78 Y120.22 E4.64783
G1 X91.749 Y119.908 E4.65826
G1 X91.726 Y119.637 E4.6673
G1 X91.704 Y119.322 E4.6778
G1 X91.681 Y118.911 E4.6915
G1 X91.644 Y118.017 E4.72126
G1 X91.646 Y117.079 E4.75245
G1 X91.728 Y116.145 E4.78364
G1 X91.89 Y115.221 E4.81484
G1 X92.078 Y114.486 E4.84007
G1 X92.83 Y111.916 E4.92913
G1 X93.475 Y109.454 E5.01378
G1 X93.739 Y108.318 E5.05258
G1 X93.957 Y107.432 E5.08292
G1 X94.22 Y106.532 E5.11411
G1 X94.56 Y105.657 E5.14533
G1 X94.972 Y104.815 E5.17651
G1 X95.3 Y104.252 E5.19818
G1 X95.796 Y103.456 E5.22937
G1 X96.004 Y103.135 E5.2421
G1 X96.353 Y102.616 E5.2629
G1 X96.692 Y102.14 E5.28233
G1 X96.838 Y101.946 E5.29041
G1 X97.01 Y101.722 E5.2998
G1 X97.222 Y101.457 E5.31109
G1 X97.542 Y101.066 E5.3279
G1 X98.007 Y100.508 E5.35205
G1 X98.419 Y100.041 E5.37277
G1 X98.575 Y99.874 E5.38037
G1 X98.766 Y99.674 E5.38957
G1 X98.934 Y99.503 E5.39754
G0 F6000 X99.22 Y99.783
G1 F1200 X99.676 Y99.328 E5.41897
G1 X100.161 Y98.856 E5.44147
G1 X100.639 Y98.418 E5.46304
G1 X100.797 Y98.282 E5.46997
G1 X100.96 Y98.145 E5.47705
G1 X101.287 Y97.876 E5.49114
G1 X101.617 Y97.609 E5.50526
G1 X102.206 Y97.145 E5.53019
G1 X102.732 Y96.757 E5.55193
G1 X103.063 Y96.53 E5.56528
G1 X103.415 Y96.296 E5.57934
G1 X103.796 Y96.049 E5.59444
G1 X104.254 Y95.76 E5.61246
G1 X104.619 Y95.54 E5.62663
G1 X104.937 Y95.363 E5.63874
G1 X105.934 Y94.829 E5.67635
G1 X106.296 Y94.644 E5.68987
G1 X106.805 Y94.396 E5.70871
G1 X107.289 Y94.175 E5.7264
G1 X107.507 Y94.082 E5.73429
G1 X107.77 Y93.974 E5.74374
G1 X108.119 Y93.836 E5.75622
G1 X108.685 Y93.619 E5.77639
G1 X109.287 Y93.4 E5.79769
G1 X109.841 Y93.217 E5.8171
G1 X110.207 Y93.107 E5.82981
G1 X110.52 Y93.018 E5.84063
G1 X111.13 Y92.856 E5.86162
G1 X111.833 Y92.679 E5.88573
G1 X112.342 Y92.564 E5.90309
G1 X112.522 Y92.528 E5.9092
G1 X112.853 Y92.467 E5.92039
G1 X113.269 Y92.398 E5.93442
G1 X113.747 Y92.323 E5.95051
G1 X114.438 Y92.224 E5.97373
G1 X115.013 Y92.158 E5.99298
G1 X115.195 Y92.142 E5.99905
G1 X115.485 Y92.12 E6.00873
G1 X115.899 Y92.096 E6.02252
G1 X116.626 Y92.059 E6.04673
G1 X117.018 Y92.045 E6.05978
G1 X117.658 Y92.045 E6.08106
G1 X118.765 Y92.079 E6.1179
G1 X119.146 Y92.098 E6.13059
G1 X119.715 Y92.136 E6.14955
G1 X120.503 Y92.218 E6.17591
G1 X121.444 Y92.353 E6.20752
G1 X121.767 Y92.405 E6.2184
G1 X122.429 Y92.521 E6.24076
G1 X122.976 Y92.632 E6.25932
G1 X123.202 Y92.684 E6.26704
G1 X123.522 Y92.763 E6.278
G1 X124.243 Y92.954 E6.30281
G1 X124.972 Y93.16 E6.328
G1 X125.533 Y93.336 E6.34756
G1 X125.763 Y93.415 E6.35565
G1 X126.049 Y93.518 E6.36576
G1 X126.355 Y93.633 E6.37663
G1 X126.62 Y93.736 E6.38609
G1 X127.542 Y94.111 E6.41919
G1 X128.178 Y94.395 E6.44236
G1 X128.975 Y94.782 E6.47183
G1 X129.278 Y94.935 E6.48312
G1 X129.86 Y95.241 E6.50499
G1 X130.418 Y95.556 E6.5263
G1 X130.598 Y95.665 E6.5333
G1 X130.809 Y95.796 E6.54156
G1 X131.407 Y96.181 E6.56521
G1 X132.139 Y96.67 E6.59449
G1 X132.63 Y97.019 E6.61453
G1 X132.806 Y97.152 E6.62186
G1 X133.013 Y97.313 E6.63059
G1 X133.3 Y97.541 E6.64278
G1 X133.682 Y97.852 E6.65916
G1 X134.229 Y98.307 E6.68283
G1 X134.702 Y98.725 E6.70382
G1 X134.847 Y98.861 E6.71043
G1 X135.006 Y99.014 E6.71777
G1 X135.317 Y99.319 E6.73226
G1 X135.665 Y99.668 E6.74865
G1 X136.15 Y100.167 E6.7718
G1 X136.581 Y100.638 E6.79303
G1 X136.852 Y100.955 E6.8069
G1 X137.056 Y101.202 E6.81756
G1 X137.425 Y101.66 E6.83712
G1 X137.875 Y102.234 E6.86138
G1 X138.205 Y102.679 E6.8798
G1 X138.328 Y102.854 E6.88692
G1 X138.494 Y103.096 E6.89668
G1 X138.694 Y103.399 E6.90876
G1 X138.963 Y103.815 E6.92523
G1 X139.343 Y104.419 E6.94897
G1 X139.615 Y104.877 E6.96668
G1 X139.716 Y105.057 E6.97355
G1 X139.864 Y105.329 E6.98385
G1 X140.071 Y105.726 E6.99874
G1 X140.269 Y106.119 E7.01338
G1 X140.599 Y106.791 E7.03828
G1 X140.863 Y107.373 E7.05953
G1 X140.95 Y107.581 E7.06703
G1 X141.03 Y107.778 E7.0741
G1 X141.16 Y108.108 E7.0859
G1 X141.295 Y108.46 E7.09844
G1 X141.597 Y109.281 E7.12753
G1 X141.771 Y109.794 E7.14555
G1 X141.824 Y109.965 E7.15151
G1 X141.921 Y110.297 E7.16301
G1 X142.012 Y110.628 E7.17443
G1 X142.117 Y111.022 E7.18799
G1 X142.318 Y111.82 E7.21536
G1 X142.439 Y112.365 E7.23393
G1 X142.49 Y112.626 E7.24277
G1 X142.539 Y112.895 E7.25187
G1 X142.597 Y113.241 E7.26354
G1 X142.679 Y113.763 E7.28111
G1 X142.766 Y114.364 E7.30131
G1 X142.812 Y114.73 E7.31358
G1 X142.851 Y115.109 E7.32625
G1 X142.875 Y115.39 E7.33563
G1 X142.897 Y115.701 E7.346
G1 X142.92 Y116.113 E7.35972
G1 X142.956 Y117.001 E7.38928
G1 X142.953 Y117.921 E7.41988
G1 X142.871 Y118.838 E7.4505
G1 X142.708 Y119.744 E7.48112
G1 X142.539 Y120.402 E7.50372
G1 X141.779 Y123 E7.59375
G1 X141.132 Y125.469 E7.67864
G1 X140.841 Y126.718 E7.72129
G1 X140.659 Y127.459 E7.74667
G1 X140.401 Y128.343 E7.7773
G1 X140.067 Y129.201 E7.80792
G1 X139.66 Y130.027 E7.83855
G1 X139.356 Y130.545 E7.85853
G1 X138.859 Y131.341 E7.88974
G1 X138.666 Y131.639 E7.90155
G1 X138.324 Y132.148 E7.92194
G1 X137.995 Y132.611 E7.94084
G1 X137.855 Y132.797 E7.94858
G1 X137.688 Y133.013 E7.95766
G1 X137.501 Y133.248 E7.96765
G1 X137.111 Y133.729 E7.98824
G1 X136.713 Y134.207 E8.00893
G1 X136.336 Y134.635 E8.0279
G1 X136.181 Y134.802 E8.03548
G1 X135.979 Y135.014 E8.04522
G1 X135.63 Y135.368 E8.06175
G1 X135.326 Y135.67 E8.07601
G1 X134.813 Y136.168 E8.09979
G1 X134.324 Y136.614 E8.1218
G1 X134.035 Y136.859 E8.1344
G1 X133.748 Y137.095 E8.14676
G1 X133.33 Y137.433 E8.16464
G1 X132.779 Y137.866 E8.18795
G1 X132.297 Y138.223 E8.2079
G1 X132.128 Y138.341 E8.21475
G1 X131.912 Y138.488 E8.22344
G1 X131.612 Y138.686 E8.2354
G1 X131.215 Y138.943 E8.25113
G1 X130.583 Y139.342 E8.27599
G1 X130.069 Y139.636 E8.29568
G1 X130.073 Y139.643 E8.29595
G1 X129.895 Y139.742 E8.30272
G1 X129.64 Y139.879 E8.31235
G1 X129.289 Y140.062 E8.32552
G1 X129.012 Y140.203 E8.33585
G1 X128.22 Y140.593 E8.36522
G1 X127.678 Y140.842 E8.38506
G1 X127.506 Y140.915 E8.39127
G1 X127.268 Y141.012 E8.39982
G1 X126.939 Y141.142 E8.41158
G1 X126.559 Y141.289 E8.42514
G1 X125.776 Y141.578 E8.4529
G1 X125.276 Y141.748 E8.47046
G1 X125.074 Y141.811 E8.4775
G1 X124.78 Y141.898 E8.4877
G1 X124.361 Y142.015 E8.50216
G1 X123.86 Y142.148 E8.51941
G1 X123.183 Y142.318 E8.54262
G1 X122.621 Y142.443 E8.56177
G1 X122.384 Y142.489 E8.5698
G1 X122.132 Y142.534 E8.57831
G1 X121.789 Y142.592 E8.58988
G1 X121.43 Y142.65 E8.60198
G1 X121.253 Y142.677 E8.60793
G1 X120.574 Y142.775 E8.63075
G1 X120.02 Y142.84 E8.6493
G1 X119.877 Y142.853 E8.65408
G1 X119.575 Y142.877 E8.66416
G1 X119.109 Y142.906 E8.67969
G1 X118.568 Y142.932 E8.6977
G1 X117.848 Y142.958 E8.72166
G1 X116.936 Y142.952 E8.752
G1 X116.616 Y142.933 E8.76266
G1 X116.107 Y142.895 E8.77964
G1 X114.848 Y142.785 E8.82167
G1 X114.167 Y142.716 E8.84444
G1 X113.025 Y142.537 E8.88288
G1 X111.905 Y142.297 E8.92098
