;FLAVOR:Marlin
;TIME:6463
;Filament used: 4.90977m
;Layer height: 0.2
;MINX:91.636
;MINY:91.637
;MINZ:0.2
;MAXX:143.364
;MAXY:143.359
;MAXZ:69.6
;Generated with Cura_SteamEngine 4.7.1
M140 S60
M105
M190 S60
M104 S200
M105
M109 S200
M82 ;absolute extrusion mode
; Robbie's Ender-3 V2 Start G-Code
M140 S60
M105
M190 S60
M104 S200
M105
M109 S200
M82 ;absolute extrusion mode
M201 X500.00 Y500.00 Z100.00 E5000.00 ;Setup machine max acceleration
M203 X500.00 Y500.00 Z10.00 E50.00 ;Setup machine max feedrate
M204 P500.00 R1000.00 T500.00 ;Setup Print/Retract/Travel acceleration
M205 X8.00 Y8.00 Z0.40 E5.00 ;Setup Jerk
M220 S100 ;Reset Feedrate
M221 S100 ;Reset Flowrate

G28 ;Home

G92 E0 ;Reset Extruder
G1 Z2.0 F3000 ;Move Z Axis up
G1 X10.1 Y20 Z0.28 F5000.0 ;Move to start position
G1 X10.1 Y200.0 Z0.28 F1500.0 E15 ;Draw the first line
G1 X10.4 Y200.0 Z0.28 F5000.0 ;Move to side a little
G1 X10.4 Y20 Z0.28 F1500.0 E30 ;Draw the second line
G92 E0 ;Reset Extruder
G1 Z2.0 F3000 ;Move Z Axis up

G92 E0
G92 E0
G1 F2700 E-5
G92 E0
G92 E0
G1 F1500 E-6
;LAYER_COUNT:348
;LAYER:0
M107
G0 F6000 X99.68 Y98.808 Z0.2
;TYPE:SKIRT
G1 F1500 E0
G1 F1200 X100.267 Y98.237 E0.02724
G1 X100.967 Y97.613 E0.05843
G1 X101.461 Y97.233 E0.07916
G1 X102.141 Y96.739 E0.10711
G1 X102.292 Y96.631 E0.11329
G1 X103.334 Y95.901 E0.1556
G1 X103.812 Y95.576 E0.17483
G1 X104.648 Y95.061 E0.20748
G1 X104.878 Y94.933 E0.21624
G1 X105.454 Y94.635 E0.23781
G1 X105.995 Y94.375 E0.25777
G1 X107.233 Y93.8 E0.30317
G1 X107.853 Y93.521 E0.32579
G1 X108.724 Y93.173 E0.35698
G1 X109.334 Y92.979 E0.37827
G1 X110.488 Y92.649 E0.41819
G1 X111.544 Y92.367 E0.45455
G1 X112.198 Y92.202 E0.47698
G1 X113.469 Y91.96 E0.52001
G1 X113.638 Y91.938 E0.52568
G1 X113.956 Y91.901 E0.53633
G1 X114.572 Y91.839 E0.55692
G1 X115.976 Y91.718 E0.60379
G1 X116.681 Y91.666 E0.6273
G1 X117.618 Y91.637 E0.65848
G1 X118.267 Y91.663 E0.68009
G1 X119.086 Y91.721 E0.7074
G1 X120.402 Y91.836 E0.75133
G1 X121.173 Y91.914 E0.77711
G1 X122.553 Y92.143 E0.82363
G1 X122.846 Y92.211 E0.83364
G1 X123.103 Y92.274 E0.84244
G1 X123.401 Y92.351 E0.85268
G1 X124.518 Y92.65 E0.89114
G1 X125.638 Y92.969 E0.92987
G1 X126.911 Y93.419 E0.97478
G1 X127.273 Y93.575 E0.98789
G1 X127.838 Y93.831 E1.00852
G1 X128.889 Y94.321 E1.04709
G1 X129.666 Y94.695 E1.07577
G1 X130.628 Y95.219 E1.1122
G1 X130.731 Y95.282 E1.11622
G1 X131.163 Y95.561 E1.13332
G1 X131.865 Y96.038 E1.16155
G1 X132.886 Y96.754 E1.20303
G1 X133.488 Y97.189 E1.22773
G1 X134.468 Y97.987 E1.26977
G1 X134.655 Y98.158 E1.27819
G1 X134.97 Y98.458 E1.29266
G1 X135.208 Y98.694 E1.30381
G1 X136.266 Y99.754 E1.35362
G1 X136.742 Y100.243 E1.37632
G1 X137.367 Y100.943 E1.40753
G1 X137.756 Y101.446 E1.42868
G1 X138.316 Y102.216 E1.46035
G1 X138.429 Y102.375 E1.46683
G1 X139.064 Y103.283 E1.50369
G1 X139.386 Y103.757 E1.52275
G1 X139.557 Y104.017 E1.5331
G1 X139.656 Y104.172 E1.53921
G1 X140.29 Y105.306 E1.58243
G1 X140.61 Y105.968 E1.60688
G1 X141.204 Y107.243 E1.65366
G1 X141.491 Y107.881 E1.67693
G1 X141.839 Y108.752 E1.70813
G1 X142.035 Y109.369 E1.72966
G1 X142.265 Y110.173 E1.75747
G1 X142.316 Y110.357 E1.76382
G1 X142.59 Y111.382 E1.79911
G1 X142.799 Y112.205 E1.82736
G1 X142.991 Y113.123 E1.85855
G1 X143.076 Y113.755 E1.87976
G1 X143.157 Y114.525 E1.90551
G1 X143.284 Y115.934 E1.95256
G1 X143.334 Y116.598 E1.97471
G1 X143.364 Y117.535 E2.00589
G1 X143.315 Y118.472 E2.0371
G1 X143.186 Y119.401 E2.06829
G1 X142.9 Y120.589 E2.10894
G1 X142.711 Y121.219 E2.13081
G1 X142.005 Y123.691 E2.21632
G1 X141.379 Y126.146 E2.30059
G1 X141.205 Y126.911 E2.32668
G1 X141.159 Y127.104 E2.33328
G1 X141.047 Y127.558 E2.34883
G1 X140.784 Y128.458 E2.38002
G1 X140.445 Y129.332 E2.4112
G1 X139.842 Y130.511 E2.45524
G1 X139.75 Y130.667 E2.46127
G1 X139.373 Y131.261 E2.48466
G1 X138.913 Y131.937 E2.51186
G1 X138.335 Y132.762 E2.54536
G1 X138.233 Y132.905 E2.55121
G1 X137.804 Y133.497 E2.57552
G1 X137.266 Y134.18 E2.60444
G1 X137.237 Y134.214 E2.60593
G1 X136.819 Y134.677 E2.62667
G1 X136.558 Y134.95 E2.63924
G1 X136.385 Y135.127 E2.64747
G1 X135.32 Y136.192 E2.69756
G1 X134.733 Y136.763 E2.7248
G1 X134.033 Y137.387 E2.75599
G1 X133.539 Y137.767 E2.77672
G1 X132.859 Y138.261 E2.80467
G1 X132.708 Y138.369 E2.81085
G1 X131.795 Y139.009 E2.84793
G1 X131.198 Y139.416 E2.87196
G1 X130.33 Y139.95 E2.90586
G1 X130.062 Y140.098 E2.91604
G1 X129.518 Y140.379 E2.93641
G1 X129.038 Y140.609 E2.95411
G1 X127.756 Y141.206 E3.00115
G1 X127.151 Y141.477 E3.02319
G1 X126.932 Y141.572 E3.03113
G1 X126.056 Y141.906 E3.06232
G1 X125.582 Y142.052 E3.07881
G1 X124.675 Y142.308 E3.11016
G1 X123.444 Y142.636 E3.15253
G1 X122.802 Y142.798 E3.17455
G1 X121.528 Y143.04 E3.21768
G1 X121.374 Y143.06 E3.22285
G1 X121.072 Y143.095 E3.23296
G1 X120.265 Y143.176 E3.25994
G1 X118.992 Y143.285 E3.30243
G1 X118.359 Y143.331 E3.32354
G1 X117.422 Y143.359 E3.35472
G1 X116.828 Y143.336 E3.37449
G1 X115.721 Y143.262 E3.41139
G1 X115.489 Y143.243 E3.41913
G1 X114.54 Y143.159 E3.45082
G1 X113.808 Y143.084 E3.47529
G1 X112.442 Y142.856 E3.52136
G1 X112.149 Y142.788 E3.53136
G1 X111.892 Y142.725 E3.54016
G1 X111.598 Y142.649 E3.55026
G1 X110.251 Y142.289 E3.59664
G1 X109.487 Y142.074 E3.62303
G1 X108.907 Y141.893 E3.64324
G1 X108.84 Y141.87 E3.6456
G1 X107.921 Y141.507 E3.67846
G1 X107.022 Y141.104 E3.71123
G1 X106.068 Y140.659 E3.74624
G1 X105.49 Y140.381 E3.76757
G1 X104.859 Y140.051 E3.79126
G1 X104.496 Y139.846 E3.80512
G1 X104.056 Y139.584 E3.82216
G1 X103.63 Y139.305 E3.83909
G1 X103.349 Y139.112 E3.85043
G1 X102.484 Y138.507 E3.88554
G1 X102.303 Y138.377 E3.89295
G1 X101.399 Y137.717 E3.93018
G1 X100.339 Y136.836 E3.97602
G1 X100.108 Y136.615 E3.98666
G1 X99.763 Y136.276 E4.00274
G1 X98.863 Y135.377 E4.04505
G1 X98.22 Y134.716 E4.07572
G1 X97.368 Y133.728 E4.11912
G1 X97.22 Y133.534 E4.12723
G1 X97.003 Y133.239 E4.13941
G1 X96.811 Y132.968 E4.15046
G1 X95.971 Y131.766 E4.19923
G1 X95.541 Y131.133 E4.22468
G1 X94.983 Y130.219 E4.2603
G1 X94.798 Y129.868 E4.2735
G1 X94.651 Y129.577 E4.28434
G1 X94.503 Y129.274 E4.29556
G1 X93.867 Y127.913 E4.34552
G1 X93.507 Y127.114 E4.37467
G1 X93.159 Y126.242 E4.4059
G1 X92.961 Y125.616 E4.42774
G1 X92.672 Y124.596 E4.463
G1 X92.329 Y123.311 E4.50723
G1 X92.271 Y123.085 E4.51499
G1 X92.173 Y122.684 E4.52872
G1 X91.941 Y121.417 E4.57156
G1 X91.917 Y121.222 E4.5781
G1 X91.89 Y120.981 E4.58616
G1 X91.853 Y120.604 E4.59876
G1 X91.729 Y119.224 E4.64485
G1 X91.666 Y118.402 E4.67227
G1 X91.636 Y117.465 E4.70345
G1 X91.685 Y116.528 E4.73466
G1 X91.814 Y115.599 E4.76585
G1 X92.101 Y114.407 E4.80663
G1 X92.297 Y113.755 E4.82927
G1 X92.995 Y111.311 E4.91381
G1 X93.624 Y108.841 E4.99859
G1 X93.796 Y108.087 E5.02431
G1 X93.952 Y107.448 E5.04619
G1 X94.215 Y106.547 E5.0774
G1 X94.553 Y105.673 E5.10857
G1 X95.157 Y104.492 E5.15269
G1 X95.246 Y104.341 E5.15852
G1 X95.618 Y103.752 E5.18169
G1 X96.012 Y103.171 E5.20504
G1 X96.115 Y103.022 E5.21106
G1 X96.672 Y102.229 E5.24329
G1 X97.193 Y101.508 E5.27288
G1 X97.79 Y100.754 E5.30487
G1 X97.829 Y100.709 E5.30685
G1 X98.196 Y100.306 E5.32498
G1 X98.443 Y100.048 E5.33686
G1 X98.611 Y99.877 E5.34483
G1 X99.68 Y98.808 E5.39511
G0 F6000 X100.077 Y98.978
G1 F1200 X100.545 Y98.524 E5.4168
G1 X101.233 Y97.912 E5.44743
G1 X101.696 Y97.556 E5.46685
G1 X102.376 Y97.062 E5.49481
G1 X102.522 Y96.958 E5.50077
G1 X103.559 Y96.232 E5.54287
G1 X104.037 Y95.907 E5.5621
G1 X104.842 Y95.411 E5.59355
G1 X105.072 Y95.283 E5.6023
G1 X105.627 Y94.995 E5.6231
G1 X106.036 Y94.798 E5.6382
G1 X107.397 Y94.165 E5.68812
G1 X108.017 Y93.886 E5.71073
G1 X108.872 Y93.545 E5.74135
G1 X109.444 Y93.363 E5.76131
G1 X110.413 Y93.085 E5.79484
G1 X110.591 Y93.036 E5.80098
G1 X111.642 Y92.755 E5.83717
G1 X112.296 Y92.59 E5.8596
G1 X113.521 Y92.357 E5.90107
G1 X113.69 Y92.335 E5.90674
G1 X113.996 Y92.299 E5.91699
G1 X114.761 Y92.223 E5.94256
G1 X115.872 Y92.127 E5.97965
G1 X116.71 Y92.065 E6.0076
G1 X117.631 Y92.037 E6.03824
G1 X118.239 Y92.062 E6.05848
G1 X119.058 Y92.12 E6.08579
G1 X120.216 Y92.22 E6.12445
G1 X121.133 Y92.312 E6.1551
G1 X122.462 Y92.532 E6.19991
G1 X122.755 Y92.6 E6.20991
G1 X123.003 Y92.661 E6.21841
G1 X123.298 Y92.738 E6.22855
G1 X124.587 Y93.084 E6.27294
G1 X125.528 Y93.353 E6.30549
G1 X126.755 Y93.787 E6.34878
G1 X127.109 Y93.94 E6.3616
G1 X127.669 Y94.194 E6.38205
G1 X128.845 Y94.743 E6.42522
G1 X129.492 Y95.055 E6.44911
G1 X130.419 Y95.56 E6.48422
G1 X130.522 Y95.623 E6.48824
G1 X130.939 Y95.892 E6.50474
G1 X131.504 Y96.275 E6.52745
G1 X132.651 Y97.078 E6.57401
G1 X133.253 Y97.513 E6.59872
G1 X134.198 Y98.282 E6.63924
G1 X134.385 Y98.453 E6.64767
G1 X134.688 Y98.742 E6.6616
G1 X134.925 Y98.977 E6.6727
G1 X135.98 Y100.033 E6.72234
G1 X136.456 Y100.522 E6.74504
G1 X137.069 Y101.209 E6.77566
G1 X137.433 Y101.681 E6.79549
G1 X137.993 Y102.451 E6.82716
G1 X138.102 Y102.604 E6.8334
G1 X138.647 Y103.382 E6.865
G1 X139.055 Y103.982 E6.88913
G1 X139.22 Y104.232 E6.89909
G1 X139.319 Y104.387 E6.90521
G1 X139.93 Y105.48 E6.94686
G1 X140.316 Y106.281 E6.97643
G1 X140.839 Y107.407 E7.01773
G1 X141.126 Y108.045 E7.04099
G1 X141.467 Y108.901 E7.07164
G1 X141.65 Y109.479 E7.09181
G1 X141.88 Y110.283 E7.11962
G1 X141.929 Y110.461 E7.12576
G1 X142.238 Y111.62 E7.16565
G1 X142.411 Y112.303 E7.18909
G1 X142.599 Y113.205 E7.21973
G1 X142.678 Y113.797 E7.2396
G1 X142.759 Y114.567 E7.26535
G1 X142.872 Y115.806 E7.30673
G1 X142.935 Y116.628 E7.33415
G1 X142.964 Y117.548 E7.36477
G1 X142.914 Y118.468 E7.39541
G1 X142.783 Y119.379 E7.42602
G1 X142.517 Y120.474 E7.4635
G1 X142.322 Y121.124 E7.48607
G1 X141.622 Y123.573 E7.57079
G1 X140.992 Y126.046 E7.65567
G1 X140.815 Y126.822 E7.68214
G1 X140.658 Y127.462 E7.70406
G1 X140.399 Y128.345 E7.73466
G1 X140.065 Y129.203 E7.76529
G1 X139.497 Y130.308 E7.80661
G1 X139.405 Y130.464 E7.81263
G1 X139.043 Y131.036 E7.83515
G1 X138.672 Y131.582 E7.8571
G1 X138.007 Y132.532 E7.89567
G1 X137.909 Y132.67 E7.9013
G1 X137.48 Y133.262 E7.92562
G1 X136.962 Y133.921 E7.9535
G1 X136.933 Y133.955 E7.95498
G1 X136.53 Y134.401 E7.97498
G1 X136.269 Y134.674 E7.98754
G1 X136.102 Y134.844 E7.99547
G1 X134.923 Y136.022 E8.0509
G1 X134.455 Y136.476 E8.07258
G1 X133.767 Y137.088 E8.10321
G1 X133.304 Y137.444 E8.12264
G1 X132.624 Y137.938 E8.15059
G1 X132.478 Y138.042 E8.15655
G1 X131.443 Y138.767 E8.19858
G1 X130.974 Y139.086 E8.21745
G1 X130.136 Y139.6 E8.25015
G1 X129.868 Y139.748 E8.26033
G1 X129.344 Y140.019 E8.27995
G1 X128.869 Y140.247 E8.29747
G1 X127.739 Y140.774 E8.33894
G1 X126.987 Y141.112 E8.36637
G1 X126.774 Y141.205 E8.3741
G1 X125.913 Y141.532 E8.40473
G1 X125.472 Y141.667 E8.42007
G1 X124.572 Y141.921 E8.45117
G1 X123.346 Y142.248 E8.49337
G1 X122.704 Y142.41 E8.5154
G1 X121.476 Y142.644 E8.55698
G1 X121.322 Y142.664 E8.56214
G1 X121.031 Y142.697 E8.57188
G1 X120.23 Y142.778 E8.59866
G1 X119.106 Y142.875 E8.63618
G1 X118.33 Y142.932 E8.66206
G1 X117.41 Y142.959 E8.69267
G1 X116.855 Y142.936 E8.71115
G1 X115.748 Y142.862 E8.74805
G1 X115.524 Y142.845 E8.75552
G1 X114.581 Y142.761 E8.78701
G1 X113.849 Y142.686 E8.81148
G1 X112.533 Y142.467 E8.85586
G1 X112.24 Y142.399 E8.86586
G1 X111.992 Y142.338 E8.87435
G1 X111.701 Y142.263 E8.88435
G1 X110.354 Y141.903 E8.93072
G1 X109.596 Y141.689 E8.95692
G1 X109.037 Y141.515 E8.97639
G1 X108.97 Y141.492 E8.97875
G1 X108.084 Y141.142 E9.01043
G1 X107.344 Y140.811 E9.0374
G1 X107.191 Y140.741 E9.04299
G1 X106.114 Y140.238 E9.08253
G1 X105.664 Y140.021 E9.09914
G1 X105.056 Y139.703 E9.12196
G1 X104.693 Y139.498 E9.13583
G1 X104.268 Y139.245 E9.15228
G1 X103.857 Y138.976 E9.16862
G1 X103.579 Y138.784 E9.17986
G1 X102.714 Y138.179 E9.21496
G1 X102.539 Y138.054 E9.22212
G1 X101.635 Y137.394 E9.25935
G1 X100.613 Y136.545 E9.30354
G1 X100.388 Y136.33 E9.31389
G1 X100.046 Y135.993 E9.32986
G1 X99.03 Y134.977 E9.37765
G1 X98.507 Y134.438 E9.40263
G1 X97.686 Y133.485 E9.44446
G1 X97.538 Y133.291 E9.45258
G1 X97.329 Y133.007 E9.46431
G1 X97.138 Y132.739 E9.47525
G1 X96.385 Y131.663 E9.51893
G1 X95.872 Y130.908 E9.54929
G1 X95.334 Y130.028 E9.5836
G1 X95.155 Y129.687 E9.59641
G1 X95.008 Y129.396 E9.60725
G1 X94.866 Y129.105 E9.61802
G1 X94.23 Y127.744 E9.66799
G1 X93.872 Y126.95 E9.69695
G1 X93.531 Y126.094 E9.7276
G1 X93.346 Y125.507 E9.74807
G1 X93.105 Y124.66 E9.77736
G1 X93.059 Y124.493 E9.78312
G1 X92.716 Y123.208 E9.82736
G1 X92.66 Y122.99 E9.83484
G1 X92.562 Y122.589 E9.84857
G1 X92.338 Y121.368 E9.88986
G1 X92.314 Y121.173 E9.8964
G1 X92.288 Y120.941 E9.90416
G1 X92.262 Y120.683 E9.91279
G1 X92.115 Y119.036 E9.96778
G1 X92.065 Y118.372 E9.98993
G1 X92.036 Y117.452 E10.02055
G1 X92.086 Y116.532 E10.05119
G1 X92.217 Y115.621 E10.0818
G1 X92.484 Y114.522 E10.11942
G1 X92.691 Y113.834 E10.14331
G1 X93.384 Y111.405 E10.22733
G1 X94.009 Y108.951 E10.31155
G1 X94.186 Y108.176 E10.33799
G1 X94.228 Y107.998 E10.34408
G1 X94.34 Y107.543 E10.35966
G1 X94.599 Y106.66 E10.39027
G1 X94.933 Y105.802 E10.42089
G1 X95.501 Y104.695 E10.46227
G1 X95.59 Y104.544 E10.4681
G1 X95.949 Y103.977 E10.49042
G1 X96.442 Y103.252 E10.51958
G1 X96.999 Y102.459 E10.55181
G1 X97.517 Y101.742 E10.58123
G1 X98.093 Y101.016 E10.61206
G1 X98.132 Y100.971 E10.61404
G1 X98.485 Y100.583 E10.63149
G1 X98.732 Y100.325 E10.64337
G1 X98.894 Y100.16 E10.65106
G1 X100.077 Y98.978 E10.70668
G0 F6000 X100.356 Y99.265
G1 F1200 X100.824 Y98.811 E10.72836
G1 X101.499 Y98.211 E10.7584
G1 X101.931 Y97.88 E10.7765
G1 X102.611 Y97.386 E10.80446
G1 X102.751 Y97.286 E10.81018
G1 X103.784 Y96.563 E10.85212
G1 X104.262 Y96.238 E10.87134
G1 X105.037 Y95.76 E10.90163
G1 X105.267 Y95.632 E10.91038
G1 X105.801 Y95.355 E10.93039
G1 X106.333 Y95.1 E10.95001
G1 X107.561 Y94.529 E10.99506
G1 X108.181 Y94.25 E11.01767
G1 X109.02 Y93.917 E11.04769
G1 X109.554 Y93.748 E11.06632
G1 X110.523 Y93.47 E11.09985
G1 X110.695 Y93.422 E11.10579
G1 X111.74 Y93.143 E11.14176
G1 X112.394 Y92.978 E11.1642
G1 X113.572 Y92.753 E11.20409
G1 X113.741 Y92.731 E11.20975
G1 X114.037 Y92.697 E11.21966
G1 X114.653 Y92.635 E11.24026
G1 X115.907 Y92.526 E11.28212
G1 X116.74 Y92.464 E11.3099
G1 X117.642 Y92.437 E11.33992
G1 X118.211 Y92.461 E11.35886
G1 X119.03 Y92.519 E11.38617
G1 X120.322 Y92.632 E11.4293
G1 X121.093 Y92.71 E11.45508
G1 X122.372 Y92.922 E11.4982
G1 X122.665 Y92.99 E11.5082
G1 X122.903 Y93.048 E11.51635
G1 X123.194 Y93.124 E11.52635
G1 X124.311 Y93.423 E11.56481
G1 X124.478 Y93.469 E11.57057
G1 X125.419 Y93.738 E11.60313
G1 X126.599 Y94.155 E11.64475
G1 X126.731 Y94.211 E11.64952
G1 X126.944 Y94.305 E11.65726
G1 X127.5 Y94.556 E11.67755
G1 X128.671 Y95.103 E11.72054
G1 X129.318 Y95.415 E11.74443
G1 X130.21 Y95.902 E11.77823
G1 X130.313 Y95.965 E11.78225
G1 X130.714 Y96.223 E11.79811
G1 X131.406 Y96.693 E11.82593
G1 X132.293 Y97.314 E11.86194
G1 X133.019 Y97.838 E11.89172
G1 X133.928 Y98.578 E11.93071
G1 X134.115 Y98.749 E11.93914
G1 X134.407 Y99.026 E11.95252
G1 X134.642 Y99.259 E11.96353
G1 X135.693 Y100.312 E12.01301
G1 X136.169 Y100.801 E12.03571
G1 X136.77 Y101.476 E12.06577
G1 X137.109 Y101.917 E12.08427
G1 X137.669 Y102.687 E12.11594
G1 X137.774 Y102.834 E12.12195
G1 X138.402 Y103.732 E12.15839
G1 X138.724 Y104.206 E12.17745
G1 X138.883 Y104.448 E12.18708
G1 X138.982 Y104.603 E12.1932
G1 X139.569 Y105.654 E12.23324
G1 X139.953 Y106.45 E12.26263
G1 X140.474 Y107.571 E12.30375
G1 X140.761 Y108.209 E12.32702
G1 X141.095 Y109.049 E12.35708
G1 X141.266 Y109.589 E12.37592
G1 X141.496 Y110.393 E12.40374
G1 X141.543 Y110.564 E12.40964
G1 X141.851 Y111.718 E12.44936
G1 X142.024 Y112.401 E12.47279
G1 X142.207 Y113.286 E12.50285
