;FLAVOR:Marlin
;TIME:262
;Filament used: 0.0946461m
;Layer height: 0.2
;MINX:101.113
;MINY:101.113
;MINZ:0.2
;MAXX:133.887
;MAXY:133.886
;MAXZ:4.4
;Generated with Cura_SteamEngine 4.7.1
M140 S60
M105
M190 S60
M104 S200
M105
M109 S200
M82 ;absolute extrusion mode
; Robbie's Ender-3 V2 Start G-Code
M140 S60
M105
M190 S60
M104 S200
M105
M109 S200
M82 ;absolute extrusion mode
M201 X500.00 Y500.00 Z100.00 E5000.00 ;Setup machine max acceleration
M203 X500.00 Y500.00 Z10.00 E50.00 ;Setup machine max feedrate
M204 P500.00 R1000.00 T500.00 ;Setup Print/Retract/Travel acceleration
M205 X8.00 Y8.00 Z0.40 E5.00 ;Setup Jerk
M220 S100 ;Reset Feedrate
M221 S100 ;Reset Flowrate

G28 ;Home

G92 E0 ;Reset Extruder
G1 Z2.0 F3000 ;Move Z Axis up
G1 X10.1 Y20 Z0.28 F5000.0 ;Move to start position
G1 X10.1 Y200.0 Z0.28 F1500.0 E15 ;Draw the first line
G1 X10.4 Y200.0 Z0.28 F5000.0 ;Move to side a little
G1 X10.4 Y20 Z0.28 F1500.0 E30 ;Draw the second line
G92 E0 ;Reset Extruder
G1 Z2.0 F3000 ;Move Z Axis up

G92 E0
G92 E0
G1 F2700 E-5
G92 E0
G92 E0
G1 F1500 E-6
;LAYER_COUNT:22
;LAYER:0
M107
G0 F6000 X106.06 Y105.748 Z0.2
;TYPE:SKIRT
G1 F1500 E0
G1 F1200 X106.169 Y105.643 E0.00503
G1 X106.612 Y105.238 E0.025
G1 X106.824 Y105.055 E0.03431
G1 X107.299 Y104.668 E0.05469
G1 X107.73 Y104.336 E0.07279
G1 X108.373 Y103.876 E0.09908
G1 X108.571 Y103.745 E0.10698
G1 X109.146 Y103.39 E0.12945
G1 X109.472 Y103.202 E0.14197
G1 X110.206 Y102.815 E0.16957
G1 X110.508 Y102.67 E0.18071
G1 X111.344 Y102.31 E0.21098
G1 X112.009 Y102.056 E0.23466
G1 X113.133 Y101.695 E0.27393
G1 X113.452 Y101.611 E0.2849
G1 X114.442 Y101.398 E0.31858
G1 X115.065 Y101.294 E0.33959
G1 X116.128 Y101.169 E0.37519
G1 X116.656 Y101.133 E0.39279
G1 X117.747 Y101.113 E0.42908
G1 X118.26 Y101.129 E0.44615
G1 X119.301 Y101.211 E0.48088
G1 X119.853 Y101.281 E0.49939
G1 X120.968 Y101.482 E0.53707
G1 X121.461 Y101.597 E0.55391
G1 X122.451 Y101.877 E0.58813
G1 X123.067 Y102.083 E0.60973
G1 X124.235 Y102.549 E0.65156
G1 X124.556 Y102.699 E0.66334
G1 X125.387 Y103.132 E0.69451
G1 X125.896 Y103.425 E0.71404
G1 X126.788 Y103.997 E0.74929
G1 X127.222 Y104.306 E0.76701
G1 X128.093 Y104.995 E0.80394
G1 X128.482 Y105.336 E0.82115
G1 X129.234 Y106.062 E0.85592
G1 X129.614 Y106.465 E0.87434
G1 X130.312 Y107.281 E0.91005
G1 X130.698 Y107.78 E0.93104
G1 X131.401 Y108.804 E0.97235
G1 X131.58 Y109.099 E0.98382
G1 X132.029 Y109.915 E1.0148
G1 X132.294 Y110.449 E1.03463
G1 X132.726 Y111.437 E1.07049
G1 X132.91 Y111.922 E1.08775
G1 X133.238 Y112.933 E1.1231
G1 X133.384 Y113.469 E1.14158
G1 X133.621 Y114.552 E1.17845
G1 X133.704 Y115.05 E1.19524
G1 X133.828 Y116.098 E1.23034
G1 X133.866 Y116.647 E1.24864
G1 X133.887 Y117.749 E1.2853
G1 X133.871 Y118.263 E1.30241
G1 X133.789 Y119.3 E1.33701
G1 X133.719 Y119.854 E1.35558
G1 X133.517 Y120.981 E1.39366
G1 X133.378 Y121.575 E1.41395
G1 X133.064 Y122.66 E1.45152
G1 X132.949 Y122.993 E1.46324
G1 X132.581 Y123.922 E1.49647
G1 X132.284 Y124.581 E1.52051
G1 X131.744 Y125.625 E1.55961
G1 X131.598 Y125.874 E1.56921
G1 X131.086 Y126.667 E1.6006
G1 X130.637 Y127.301 E1.62644
G1 X129.838 Y128.301 E1.66901
G1 X129.623 Y128.54 E1.67971
G1 X128.985 Y129.193 E1.71007
G1 X128.525 Y129.626 E1.73108
G1 X127.704 Y130.326 E1.76697
G1 X127.214 Y130.704 E1.78755
G1 X126.187 Y131.407 E1.82894
G1 X125.886 Y131.589 E1.84064
G1 X125.089 Y132.027 E1.87089
G1 X124.447 Y132.346 E1.89473
G1 X123.457 Y132.778 E1.93066
G1 X123.116 Y132.904 E1.94275
G1 X122.7 Y133.05 E1.95742
G1 X121.796 Y133.324 E1.98883
G1 X121.446 Y133.414 E2.00085
G1 X120.522 Y133.61 E2.03227
G1 X119.972 Y133.702 E2.05082
G1 X118.891 Y133.828 E2.08701
G1 X118.323 Y133.866 E2.10595
G1 X117.267 Y133.886 E2.14108
G1 X116.754 Y133.871 E2.15815
G1 X115.648 Y133.783 E2.19505
G1 X114.991 Y133.697 E2.21709
G1 X114.033 Y133.528 E2.24944
G1 X113.88 Y133.494 E2.25466
G1 X113.397 Y133.375 E2.2712
G1 X113.186 Y133.318 E2.27847
G1 X112.557 Y133.128 E2.30032
G1 X112.068 Y132.964 E2.31748
G1 X111.068 Y132.573 E2.35319
G1 X110.432 Y132.288 E2.37637
G1 X109.314 Y131.708 E2.41826
G1 X109.026 Y131.537 E2.4294
G1 X108.252 Y131.032 E2.46014
G1 X107.735 Y130.663 E2.48127
G1 X106.893 Y129.998 E2.51695
G1 X106.524 Y129.676 E2.53324
G1 X106.019 Y129.207 E2.55616
G1 X105.827 Y129.017 E2.56515
G1 X105.256 Y128.408 E2.59291
G1 X105.105 Y128.234 E2.60058
G1 X104.707 Y127.748 E2.62147
G1 X104.31 Y127.234 E2.64307
G1 X103.756 Y126.447 E2.67508
G1 X103.647 Y126.277 E2.6818
G1 X103.36 Y125.805 E2.70017
G1 X103.277 Y125.66 E2.70573
G1 X102.971 Y125.085 E2.72739
G1 X102.705 Y124.549 E2.74729
G1 X102.281 Y123.581 E2.78244
G1 X102.049 Y122.973 E2.80409
G1 X101.667 Y121.769 E2.8461
G1 X101.577 Y121.416 E2.85822
G1 X101.379 Y120.468 E2.89043
G1 X101.29 Y119.922 E2.90883
G1 X101.174 Y118.918 E2.94244
G1 X101.135 Y118.359 E2.96108
G1 X101.113 Y117.251 E2.99794
G1 X101.129 Y116.737 E3.01504
G1 X101.211 Y115.7 E3.04964
G1 X101.281 Y115.146 E3.06822
G1 X101.48 Y114.034 E3.10579
G1 X101.616 Y113.449 E3.12576
G1 X101.934 Y112.345 E3.16398
G1 X102.054 Y111.998 E3.17619
G1 X102.421 Y111.074 E3.20926
G1 X102.667 Y110.528 E3.22917
G1 X103.161 Y109.562 E3.26526
G1 X103.436 Y109.084 E3.2836
G1 X104.02 Y108.175 E3.31954
G1 X104.3 Y107.783 E3.33556
G1 X104.943 Y106.967 E3.37011
G1 X105.383 Y106.46 E3.39244
G1 X106.06 Y105.748 E3.42512
G0 F6000 X106.337 Y106.036
G1 F1200 X106.446 Y105.931 E3.43015
G1 X106.874 Y105.541 E3.44941
G1 X107.086 Y105.358 E3.45873
G1 X107.543 Y104.985 E3.47835
G1 X107.974 Y104.653 E3.49644
G1 X108.594 Y104.21 E3.52179
G1 X108.792 Y104.079 E3.52968
G1 X109.346 Y103.736 E3.55135
G1 X109.672 Y103.548 E3.56387
G1 X110.379 Y103.175 E3.59046
G1 X110.681 Y103.03 E3.6016
G1 X111.487 Y102.684 E3.63077
G1 X112.152 Y102.43 E3.65445
G1 X113.235 Y102.081 E3.69229
G1 X113.554 Y101.997 E3.70327
G1 X114.508 Y101.793 E3.73571
G1 X115.131 Y101.689 E3.75672
G1 X116.155 Y101.569 E3.79101
G1 X116.683 Y101.533 E3.80862
G1 X117.734 Y101.513 E3.84358
G1 X118.247 Y101.529 E3.86065
G1 X119.251 Y101.608 E3.89415
G1 X119.803 Y101.678 E3.91265
G1 X120.877 Y101.871 E3.94895
G1 X121.37 Y101.986 E3.96578
G1 X122.324 Y102.256 E3.99876
G1 X122.94 Y102.462 E4.02036
G1 X124.065 Y102.912 E4.06066
G1 X124.386 Y103.062 E4.07245
G1 X125.187 Y103.478 E4.10247
G1 X125.696 Y103.771 E4.122
G1 X126.556 Y104.323 E4.15599
G1 X126.99 Y104.632 E4.17371
G1 X127.829 Y105.296 E4.2093
G1 X128.218 Y105.637 E4.2265
G1 X128.943 Y106.336 E4.26
G1 X129.323 Y106.739 E4.27842
G1 X129.995 Y107.525 E4.31282
G1 X130.381 Y108.024 E4.3338
G1 X131.059 Y109.011 E4.37363
G1 X131.238 Y109.306 E4.3851
G1 X131.671 Y110.093 E4.41498
G1 X131.936 Y110.627 E4.43481
G1 X132.352 Y111.579 E4.46936
G1 X132.536 Y112.064 E4.48661
G1 X132.852 Y113.038 E4.52067
G1 X132.998 Y113.574 E4.53915
G1 X133.227 Y114.617 E4.57467
G1 X133.31 Y115.115 E4.59146
G1 X133.429 Y116.126 E4.62532
G1 X133.467 Y116.675 E4.64362
G1 X133.487 Y117.737 E4.67895
G1 X133.471 Y118.251 E4.69605
G1 X133.392 Y119.25 E4.72938
G1 X133.322 Y119.804 E4.74795
G1 X133.127 Y120.89 E4.78465
G1 X132.988 Y121.484 E4.80494
G1 X132.686 Y122.529 E4.84112
G1 X132.571 Y122.862 E4.85284
G1 X132.216 Y123.757 E4.88486
G1 X131.919 Y124.416 E4.90891
G1 X131.399 Y125.423 E4.9466
G1 X131.253 Y125.672 E4.9562
G1 X130.759 Y126.436 E4.98646
G1 X130.31 Y127.07 E5.0123
G1 X129.541 Y128.033 E5.05329
G1 X129.326 Y128.272 E5.06398
G1 X128.71 Y128.901 E5.09326
G1 X128.25 Y129.334 E5.11427
G1 X127.46 Y130.009 E5.14884
G1 X126.97 Y130.387 E5.16942
G1 X125.98 Y131.065 E5.20933
G1 X125.679 Y131.247 E5.22103
G1 X124.911 Y131.669 E5.25017
G1 X124.269 Y131.988 E5.27402
G1 X123.315 Y132.405 E5.30865
G1 X122.983 Y132.527 E5.32041
G1 X122.567 Y132.673 E5.33507
G1 X121.697 Y132.937 E5.36531
G1 X121.347 Y133.027 E5.37733
G1 X120.456 Y133.216 E5.40763
G1 X119.906 Y133.308 E5.42617
G1 X118.865 Y133.429 E5.46103
G1 X118.297 Y133.467 E5.47996
G1 X117.279 Y133.486 E5.51383
G1 X116.766 Y133.471 E5.5309
G1 X115.7 Y133.386 E5.56647
G1 X115.043 Y133.3 E5.58851
G1 X114.12 Y133.138 E5.61967
G1 X113.967 Y133.104 E5.62489
G1 X113.502 Y132.989 E5.64082
G1 X113.291 Y132.932 E5.64809
G1 X112.684 Y132.749 E5.66917
G1 X112.195 Y132.585 E5.68633
G1 X111.231 Y132.208 E5.72076
G1 X110.595 Y131.923 E5.74394
G1 X109.518 Y131.364 E5.7843
G1 X109.23 Y131.193 E5.79544
G1 X108.484 Y130.707 E5.82505
G1 X107.967 Y130.338 E5.84617
G1 X107.156 Y129.697 E5.88056
G1 X106.787 Y129.375 E5.89685
G1 X106.3 Y128.922 E5.91897
G1 X106.108 Y128.732 E5.92795
G1 X105.558 Y128.146 E5.95468
G1 X105.407 Y127.972 E5.96234
G1 X105.024 Y127.503 E5.98248
G1 X104.627 Y126.989 E6.00409
G1 X104.093 Y126.231 E6.03492
G1 X103.984 Y126.061 E6.04164
G1 X103.708 Y125.606 E6.05934
G1 X103.625 Y125.461 E6.0649
G1 X103.329 Y124.907 E6.08579
G1 X103.063 Y124.371 E6.10569
G1 X102.654 Y123.438 E6.13957
G1 X102.422 Y122.83 E6.16122
G1 X102.055 Y121.67 E6.20168
G1 X101.965 Y121.317 E6.2138
G1 X101.774 Y120.403 E6.24486
G1 X101.685 Y119.857 E6.26326
G1 X101.573 Y118.89 E6.29563
G1 X101.534 Y118.331 E6.31427
G1 X101.513 Y117.263 E6.3498
G1 X101.529 Y116.749 E6.36691
G1 X101.608 Y115.75 E6.40024
G1 X101.678 Y115.196 E6.41881
G1 X101.869 Y114.125 E6.45499
G1 X102.005 Y113.54 E6.47497
G1 X102.312 Y112.476 E6.5118
G1 X102.432 Y112.129 E6.52401
G1 X102.786 Y111.239 E6.55587
G1 X103.032 Y110.693 E6.57579
G1 X103.508 Y109.761 E6.6106
G1 X103.783 Y109.283 E6.62894
G1 X104.345 Y108.408 E6.66353
G1 X104.625 Y108.016 E6.67955
G1 X105.245 Y107.229 E6.71287
G1 X105.685 Y106.722 E6.7352
G1 X106.337 Y106.036 E6.76668
G0 F6000 X106.615 Y106.324
G1 F1200 X106.724 Y106.219 E6.77171
G1 X107.135 Y105.844 E6.79021
G1 X107.347 Y105.661 E6.79953
G1 X107.788 Y105.301 E6.81846
G1 X108.219 Y104.969 E6.83656
G1 X108.815 Y104.543 E6.86092
G1 X109.013 Y104.412 E6.86882
G1 X109.545 Y104.083 E6.88963
G1 X109.871 Y103.895 E6.90214
G1 X110.552 Y103.536 E6.92775
G1 X110.854 Y103.391 E6.93889
G1 X111.63 Y103.057 E6.96699
G1 X112.295 Y102.803 E6.99067
G1 X113.337 Y102.468 E7.02707
G1 X113.656 Y102.384 E7.03804
G1 X114.574 Y102.187 E7.06927
G1 X115.197 Y102.083 E7.09028
G1 X116.182 Y101.968 E7.12326
G1 X116.71 Y101.932 E7.14086
G1 X117.722 Y101.913 E7.17453
G1 X118.235 Y101.929 E7.1916
G1 X119.2 Y102.005 E7.22379
G1 X119.752 Y102.075 E7.2423
G1 X120.786 Y102.261 E7.27724
G1 X121.279 Y102.376 E7.29408
G1 X122.197 Y102.636 E7.32581
G1 X122.813 Y102.842 E7.34742
G1 X123.896 Y103.274 E7.3862
G1 X124.217 Y103.424 E7.39798
G1 X124.988 Y103.825 E7.42689
G1 X125.497 Y104.118 E7.44642
G1 X126.324 Y104.649 E7.47911
G1 X126.758 Y104.958 E7.49683
G1 X127.566 Y105.597 E7.53109
G1 X127.955 Y105.938 E7.5483
G1 X128.652 Y106.61 E7.5805
G1 X129.032 Y107.013 E7.59892
G1 X129.679 Y107.77 E7.63204
G1 X130.065 Y108.269 E7.65303
G1 X130.717 Y109.219 E7.69135
G1 X130.896 Y109.514 E7.70283
G1 X131.313 Y110.271 E7.73157
G1 X131.578 Y110.805 E7.7514
G1 X131.978 Y111.721 E7.78464
G1 X132.162 Y112.206 E7.8019
G1 X132.466 Y113.143 E7.83466
G1 X132.612 Y113.679 E7.85314
G1 X132.832 Y114.683 E7.88732
G1 X132.915 Y115.181 E7.90412
G1 X133.03 Y116.154 E7.9367
G1 X133.068 Y116.703 E7.95501
G1 X133.087 Y117.724 E7.98897
G1 X133.071 Y118.238 E8.00607
G1 X132.996 Y119.2 E8.03817
G1 X132.926 Y119.754 E8.05674
G1 X132.738 Y120.799 E8.09206
G1 X132.599 Y121.393 E8.11235
G1 X132.308 Y122.399 E8.14718
G1 X132.193 Y122.732 E8.15889
G1 X131.851 Y123.593 E8.18971
G1 X131.554 Y124.252 E8.21375
G1 X131.054 Y125.22 E8.24999
G1 X130.908 Y125.469 E8.25959
G1 X130.433 Y126.205 E8.28872
G1 X129.984 Y126.839 E8.31456
G1 X129.243 Y127.766 E8.35403
G1 X129.028 Y128.005 E8.36473
G1 X128.436 Y128.61 E8.39288
G1 X127.976 Y129.043 E8.41389
G1 X127.215 Y129.692 E8.44716
G1 X126.725 Y130.07 E8.46774
G1 X125.773 Y130.722 E8.50612
G1 X125.472 Y130.904 E8.51782
G1 X124.733 Y131.311 E8.54588
G1 X124.091 Y131.63 E8.56972
G1 X123.173 Y132.031 E8.60304
G1 X122.851 Y132.149 E8.61445
G1 X122.435 Y132.295 E8.62911
G1 X121.597 Y132.55 E8.65824
G1 X121.247 Y132.64 E8.67026
G1 X120.39 Y132.821 E8.6994
G1 X119.84 Y132.913 E8.71794
G1 X118.838 Y133.03 E8.7515
G1 X118.27 Y133.068 E8.77043
G1 X117.291 Y133.087 E8.803
G1 X116.778 Y133.072 E8.82007
G1 X115.752 Y132.99 E8.8543
G1 X115.095 Y132.904 E8.87634
G1 X114.206 Y132.747 E8.90636
G1 X114.053 Y132.713 E8.91158
G1 X113.606 Y132.603 E8.92689
G1 X113.395 Y132.546 E8.93416
G1 X112.812 Y132.37 E8.95441
G1 X112.323 Y132.206 E8.97157
G1 X111.395 Y131.843 E9.00471
G1 X110.759 Y131.558 E9.02789
G1 X109.723 Y131.021 E9.0667
G1 X109.435 Y130.85 E9.07784
G1 X108.716 Y130.381 E9.10639
G1 X108.199 Y130.012 E9.12752
G1 X107.419 Y129.395 E9.1606
G1 X107.05 Y129.073 E9.17689
G1 X106.581 Y128.638 E9.19816
G1 X106.389 Y128.448 E9.20715
G1 X105.86 Y127.883 E9.23289
G1 X105.709 Y127.709 E9.24055
G1 X105.341 Y127.259 E9.25989
G1 X104.944 Y126.745 E9.28149
G1 X104.429 Y126.016 E9.31118
G1 X104.32 Y125.846 E9.31789
G1 X104.055 Y125.407 E9.33495
G1 X103.972 Y125.262 E9.3405
G1 X103.687 Y124.729 E9.36061
G1 X103.421 Y124.193 E9.38051
G1 X103.028 Y123.295 E9.41311
G1 X102.796 Y122.687 E9.43476
G1 X102.442 Y121.571 E9.4737
G1 X102.352 Y121.218 E9.48581
G1 X102.169 Y120.339 E9.51568
G1 X102.08 Y119.793 E9.53408
G1 X101.972 Y118.862 E9.56525
G1 X101.933 Y118.303 E9.58389
G1 X101.913 Y117.276 E9.61805
G1 X101.929 Y116.762 E9.63515
G1 X102.004 Y115.8 E9.66725
G1 X102.074 Y115.246 E9.68582
G1 X102.259 Y114.215 E9.72066
G1 X102.395 Y113.63 E9.74064
G1 X102.69 Y112.606 E9.77608
G1 X102.81 Y112.259 E9.78829
G1 X103.15 Y111.403 E9.81893
G1 X103.396 Y110.857 E9.83884
G1 X103.855 Y109.961 E9.87233
G1 X104.13 Y109.483 E9.89067
G1 X104.671 Y108.64 E9.92398
G1 X104.951 Y108.248 E9.94001
G1 X105.547 Y107.492 E9.97203
G1 X105.987 Y106.985 E9.99435
G1 X106.615 Y106.324 E10.02468
G1 F1500 E4.02468
;MESH:trigger_test.stl
G0 F6000 X115.614 Y116.131
G0 X114.423 Y115.264
G0 X114.051 Y117.5
G0 X114.221 Y118.566
G0 X114.711 Y119.526
G0 X115.474 Y120.289
G0 X116.251 Y120.685
G0 X117.5 Y121.11
;TYPE:WALL-INNER
G1 F1500 E10.02468
G1 F1200 X118.616 Y120.934 E10.06226
G1 X119.622 Y120.42 E10.09983
G1 X120.42 Y119.622 E10.13736
G1 X120.933 Y118.616 E10.17492
G1 X121.109 Y117.5 E10.2125
G1 X120.933 Y116.384 E10.25008
G1 X120.42 Y115.378 E10.28764
G1 X119.622 Y114.58 E10.32517
G1 X118.616 Y114.066 E10.36275
G1 X117.5 Y113.89 E10.40032
G1 X116.384 Y114.066 E10.4379
G1 X115.378 Y114.579 E10.47546
G1 X114.579 Y115.378 E10.51304
G1 X114.067 Y116.384 E10.55059
G1 X113.889 Y117.5 E10.58817
G1 X114.067 Y118.616 E10.62576
G1 X114.579 Y119.622 E10.66331
G1 X115.378 Y120.421 E10.70089
G1 X116.384 Y120.934 E10.73845
G1 X117.5 Y121.11 E10.77602
G0 F6000 X117.5 Y120.705
;TYPE:WALL-OUTER
G1 F1200 X118.491 Y120.549 E10.80939
G1 X119.384 Y120.093 E10.84274
G1 X120.092 Y119.384 E10.87607
G1 X120.548 Y118.491 E10.90942
G1 X120.704 Y117.5 E10.94278
G1 X120.548 Y116.509 E10.97615
G1 X120.092 Y115.616 E11.0095
G1 X119.384 Y114.907 E11.04282
G1 X118.491 Y114.451 E11.07617
G1 X117.5 Y114.295 E11.10954
G1 X116.509 Y114.451 E11.14291
G1 X115.616 Y114.907 E11.17626
G1 X114.907 Y115.616 E11.20961
G1 X114.452 Y116.509 E11.24294
G1 X114.294 Y117.5 E11.27632
G1 X114.452 Y118.491 E11.30969
G1 X114.907 Y119.384 E11.34303
G1 X115.616 Y120.093 E11.37638
G1 X116.509 Y120.549 E11.40973
G1 X117.5 Y120.705 E11.44309
G0 F6000 X117.5 Y121.145
G0 X117.5 Y121.303
G0 X117.458 Y122.117
G0 X117.481 Y122.309
;TYPE:WALL-INNER
G1 F1200 X117.02 Y122.286 E11.45845
G1 X116.558 Y122.216 E11.47399
G1 X116.093 Y122.098 E11.48994
G1 X115.649 Y121.939 E11.50563
G1 X115.218 Y121.735 E11.52149
G1 X114.828 Y121.499 E11.53665
G1 X114.438 Y121.208 E11.55284
G1 X114.089 Y120.893 E11.56847
