;FLAVOR:Marlin
;TIME:611
;Filament used: 0.301506m
;Layer height: 0.2
;MINX:96.515
;MINY:53.015
;MINZ:0.2
;MAXX:138.485
;MAXY:181.985
;MAXZ:2
;Generated with Cura_SteamEngine 4.7.1
M140 S60
M105
M190 S60
M104 S200
M105
M109 S200
M82 ;absolute extrusion mode
; Robbie's Ender-3 V2 Start G-Code
M140 S60
M105
M190 S60
M104 S200
M105
M109 S200
M82 ;absolute extrusion mode
M201 X500.00 Y500.00 Z100.00 E5000.00 ;Setup machine max acceleration
M203 X500.00 Y500.00 Z10.00 E50.00 ;Setup machine max feedrate
M204 P500.00 R1000.00 T500.00 ;Setup Print/Retract/Travel acceleration
M205 X8.00 Y8.00 Z0.40 E5.00 ;Setup Jerk
M220 S100 ;Reset Feedrate
M221 S100 ;Reset Flowrate

G28 ;Home

G92 E0 ;Reset Extruder
G1 Z2.0 F3000 ;Move Z Axis up
G1 X10.1 Y20 Z0.28 F5000.0 ;Move to start position
G1 X10.1 Y200.0 Z0.28 F1500.0 E15 ;Draw the first line
G1 X10.4 Y200.0 Z0.28 F5000.0 ;Move to side a little
G1 X10.4 Y20 Z0.28 F1500.0 E30 ;Draw the second line
G92 E0 ;Reset Extruder
G1 Z2.0 F3000 ;Move Z Axis up

G92 E0
G92 E0
G1 F2700 E-5
G92 E0
G92 E0
G1 F1500 E-6
;LAYER_COUNT:10
;LAYER:0
M107
G0 F6000 X100.24 Y61.924 Z0.2
;TYPE:SKIRT
G1 F1500 E0
G1 F1200 X100.78 Y61.157 E0.0312
G1 X101.383 Y60.439 E0.06238
G1 X102.03 Y59.79 E0.09286
G1 X102.382 Y59.465 E0.1088
G1 X103.991 Y57.94 E0.18253
G1 X104.698 Y57.324 E0.21372
G1 X105.456 Y56.771 E0.24493
G1 X106.414 Y56.2 E0.28202
G1 X107.123 Y55.825 E0.3087
G1 X108.827 Y54.957 E0.3723
G1 X109.469 Y54.64 E0.39612
G1 X110.327 Y54.261 E0.42731
G1 X111.214 Y53.956 E0.45851
G1 X112.451 Y53.666 E0.50077
G1 X113.249 Y53.527 E0.52771
G1 X115.022 Y53.245 E0.58742
G1 X115.185 Y53.22 E0.59291
G1 X115.869 Y53.122 E0.61589
G1 X116.802 Y53.029 E0.64708
G1 X117.74 Y53.015 E0.67828
G1 X118.983 Y53.121 E0.71977
G1 X119.761 Y53.232 E0.74591
G1 X119.927 Y53.257 E0.75149
G1 X121.563 Y53.516 E0.80658
G1 X122.39 Y53.658 E0.83449
G1 X123.306 Y53.857 E0.86567
G1 X124.202 Y54.134 E0.89686
G1 X125.362 Y54.623 E0.93873
G1 X126.093 Y54.982 E0.96582
G1 X127.8 Y55.852 E1.02954
G1 X128.439 Y56.189 E1.05357
G1 X129.25 Y56.662 E1.0848
G1 X130.017 Y57.201 E1.11597
G1 X130.727 Y57.797 E1.14681
G1 X131.717 Y58.702 E1.19142
G1 X131.948 Y58.918 E1.20194
G1 X132.975 Y59.888 E1.24892
G1 X133.629 Y60.561 E1.28014
G1 X134.223 Y61.286 E1.31131
G1 X134.753 Y62.06 E1.34251
G1 X135.215 Y62.876 E1.3737
G1 X135.599 Y63.71 E1.40424
G1 X135.663 Y63.866 E1.40984
G1 X135.982 Y64.748 E1.44104
G1 X136.224 Y65.654 E1.47223
G1 X136.388 Y66.577 E1.50341
G1 X136.473 Y67.511 E1.5346
G1 X136.478 Y68.449 E1.5658
G1 X136.404 Y69.384 E1.597
G1 X136.25 Y70.309 E1.62819
G1 X136.017 Y71.218 E1.6594
G1 X135.752 Y71.991 E1.68658
G1 X135.475 Y72.71 E1.7122
G1 X134.573 Y75.156 E1.79891
G1 X133.77 Y77.541 E1.88261
G1 X133.034 Y79.946 E1.96627
G1 X132.372 Y82.352 E2.04926
G1 X131.764 Y84.83 E2.13413
G1 X131.244 Y87.246 E2.21632
G1 X130.777 Y89.754 E2.30117
G1 X130.387 Y92.244 E2.385
G1 X130.069 Y94.733 E2.46846
G1 X129.82 Y97.248 E2.55252
G1 X129.643 Y99.747 E2.63584
G1 X129.537 Y102.256 E2.71937
G1 X129.5 Y104.859 E2.80595
G1 X129.5 Y117.457 E3.22496
G1 X129.537 Y120.065 E3.31171
G1 X129.644 Y122.586 E3.39564
G1 X129.821 Y125.081 E3.47883
G1 X130.069 Y127.581 E3.56239
G1 X130.388 Y130.074 E3.64598
G1 X130.779 Y132.567 E3.72991
G1 X131.242 Y135.057 E3.81415
G1 X131.772 Y137.521 E3.89798
G1 X132.361 Y139.923 E3.98024
G1 X133.037 Y142.379 E4.06496
G1 X133.775 Y144.789 E4.14879
G1 X134.582 Y147.181 E4.23276
G1 X135.445 Y149.521 E4.31571
G1 X136.39 Y151.876 E4.40011
G1 X136.546 Y152.235 E4.41313
G1 X136.581 Y152.326 E4.41637
G1 X137.124 Y153.608 E4.46268
G1 X137.453 Y154.486 E4.49386
G1 X137.705 Y155.389 E4.52504
G1 X137.83 Y155.998 E4.54572
G1 X137.971 Y156.802 E4.57287
G1 X138.255 Y158.587 E4.63299
G1 X138.377 Y159.431 E4.66135
G1 X138.471 Y160.364 E4.69254
G1 X138.485 Y161.302 E4.72374
G1 X138.379 Y162.545 E4.76523
G1 X138.243 Y163.492 E4.79705
G1 X137.984 Y165.128 E4.85214
G1 X137.842 Y165.955 E4.88005
G1 X137.643 Y166.871 E4.91123
G1 X137.366 Y167.767 E4.94242
G1 X136.877 Y168.927 E4.98429
G1 X136.518 Y169.658 E5.01138
G1 X135.647 Y171.367 E5.07518
G1 X135.313 Y172 E5.09898
G1 X134.84 Y172.81 E5.13018
G1 X134.3 Y173.577 E5.16138
G1 X133.48 Y174.526 E5.20309
G1 X132.931 Y175.092 E5.22932
G1 X131.637 Y176.387 E5.29021
G1 X131.05 Y176.959 E5.31747
G1 X130.351 Y177.584 E5.34865
G1 X129.601 Y178.147 E5.37985
G1 X128.522 Y178.799 E5.42178
G1 X127.811 Y179.175 E5.44853
G1 X126.231 Y179.981 E5.50752
G1 X125.466 Y180.36 E5.53592
G1 X124.608 Y180.739 E5.56711
G1 X123.721 Y181.044 E5.59831
G1 X122.484 Y181.334 E5.64057
G1 X121.686 Y181.473 E5.66751
G1 X119.913 Y181.755 E5.72722
G1 X119.75 Y181.78 E5.73271
G1 X119.066 Y181.878 E5.75569
G1 X118.133 Y181.971 E5.78687
G1 X117.195 Y181.985 E5.81808
G1 X115.952 Y181.879 E5.85957
G1 X115.174 Y181.768 E5.88571
G1 X115.008 Y181.743 E5.89129
G1 X113.372 Y181.484 E5.94638
G1 X112.545 Y181.342 E5.97429
G1 X111.629 Y181.143 E6.00547
G1 X110.733 Y180.866 E6.03666
G1 X109.577 Y180.379 E6.07838
G1 X108.835 Y180.015 E6.10587
G1 X108.683 Y179.939 E6.11152
G1 X107.269 Y179.218 E6.16431
G1 X106.5 Y178.813 E6.19322
G1 X105.69 Y178.34 E6.22442
G1 X104.923 Y177.8 E6.25562
G1 X103.974 Y176.98 E6.29733
G1 X103.408 Y176.431 E6.32356
G1 X102.113 Y175.137 E6.38445
G1 X101.532 Y174.54 E6.41215
G1 X100.908 Y173.84 E6.44334
G1 X100.346 Y173.09 E6.47452
G1 X99.7 Y172.021 E6.51606
G1 X99.325 Y171.312 E6.54274
G1 X98.457 Y169.608 E6.60634
G1 X98.14 Y168.966 E6.63015
G1 X97.761 Y168.108 E6.66135
G1 X97.456 Y167.221 E6.69255
G1 X97.166 Y165.984 E6.73481
G1 X97.027 Y165.186 E6.76175
G1 X96.745 Y163.413 E6.82146
G1 X96.72 Y163.25 E6.82694
G1 X96.622 Y162.566 E6.84993
G1 X96.529 Y161.633 E6.88111
G1 X96.515 Y160.695 E6.91231
G1 X96.621 Y159.452 E6.95381
G1 X96.959 Y157.101 E7.0328
G1 X97.094 Y156.254 E7.06133
G1 X97.282 Y155.335 E7.09253
G1 X97.536 Y154.47 E7.12252
G1 X97.576 Y154.352 E7.12666
G1 X97.844 Y153.643 E7.15187
G1 X97.983 Y153.31 E7.16387
G1 X98.79 Y151.428 E7.23198
G1 X99.712 Y149.099 E7.31529
G1 X100.566 Y146.753 E7.39833
G1 X101.358 Y144.361 E7.48213
G1 X102.087 Y141.937 E7.56632
G1 X102.745 Y139.502 E7.65022
G1 X103.316 Y137.125 E7.73153
G1 X103.848 Y134.596 E7.81748
G1 X104.298 Y132.106 E7.90164
G1 X104.672 Y129.646 E7.9844
G1 X104.981 Y127.128 E8.06878
G1 X105.217 Y124.63 E8.15223
G1 X105.383 Y122.117 E8.236
G1 X105.478 Y119.593 E8.32
G1 X105.502 Y117.525 E8.38879
G1 X105.502 Y105.128 E8.80112
G1 X105.465 Y102.52 E8.88787
G1 X105.358 Y99.998 E8.97183
G1 X105.181 Y97.504 E9.05498
G1 X104.934 Y95.009 E9.13837
G1 X104.614 Y92.508 E9.22224
G1 X104.223 Y90.019 E9.30604
G1 X103.761 Y87.536 E9.39004
G1 X103.219 Y85.02 E9.47564
G1 X102.633 Y82.633 E9.55739
G1 X101.968 Y80.215 E9.6408
G1 X101.227 Y77.797 E9.72491
G1 X100.428 Y75.427 E9.8081
G1 X99.39 Y72.63 E9.90733
G1 X99.159 Y72.034 E9.92859
G1 X98.857 Y71.146 E9.95978
G1 X98.633 Y70.236 E9.99095
G1 X98.486 Y69.309 E10.02217
G1 X98.42 Y68.374 E10.05335
G1 X98.433 Y67.436 E10.08455
G1 X98.526 Y66.503 E10.11573
G1 X98.698 Y65.581 E10.14693
G1 X98.948 Y64.677 E10.17812
G1 X99.285 Y63.77 E10.21031
G1 X99.365 Y63.581 E10.21713
G1 X99.767 Y62.734 E10.24832
G1 X100.24 Y61.924 E10.27951
G0 F6000 X100.595 Y62.112
G1 F1200 X101.128 Y61.361 E10.31014
G1 X101.724 Y60.66 E10.34075
G1 X102.301 Y60.084 E10.36786
G1 X102.644 Y59.767 E10.3834
G1 X104.266 Y58.23 E10.45772
G1 X104.961 Y57.626 E10.48834
G1 X105.706 Y57.085 E10.51897
G1 X106.601 Y56.554 E10.55358
G1 X107.454 Y56.104 E10.58566
G1 X108.885 Y55.375 E10.63907
G1 X109.646 Y54.999 E10.6673
G1 X110.488 Y54.627 E10.69792
G1 X111.36 Y54.33 E10.72856
G1 X112.52 Y54.06 E10.76817
G1 X113.318 Y53.921 E10.79511
G1 X115.085 Y53.64 E10.85462
G1 X115.242 Y53.616 E10.85991
G1 X115.926 Y53.518 E10.88289
G1 X116.842 Y53.427 E10.9135
G1 X117.762 Y53.416 E10.94411
G1 X118.926 Y53.517 E10.98297
G1 X119.864 Y53.652 E11.01448
G1 X121.651 Y53.936 E11.07467
G1 X122.321 Y54.052 E11.09728
G1 X123.221 Y54.249 E11.12793
G1 X124.1 Y54.522 E11.15854
G1 X125.186 Y54.982 E11.19777
G1 X125.917 Y55.341 E11.22485
G1 X127.481 Y56.137 E11.28322
G1 X128.253 Y56.543 E11.31223
G1 X129.048 Y57.007 E11.34285
G1 X129.799 Y57.539 E11.37346
G1 X130.457 Y58.093 E11.40207
G1 X131.444 Y58.995 E11.44654
G1 X131.673 Y59.209 E11.45696
G1 X132.7 Y60.179 E11.50395
G1 X133.342 Y60.839 E11.53457
G1 X133.923 Y61.553 E11.56519
G1 X134.44 Y62.315 E11.59582
G1 X134.89 Y63.118 E11.62643
G1 X135.229 Y63.862 E11.65363
G1 X135.293 Y64.018 E11.65923
G1 X135.605 Y64.884 E11.68985
G1 X135.841 Y65.774 E11.72047
G1 X135.998 Y66.681 E11.75109
G1 X136.077 Y67.598 E11.7817
G1 X136.075 Y68.519 E11.81234
G1 X135.994 Y69.436 E11.84295
G1 X135.833 Y70.342 E11.87356
G1 X135.594 Y71.232 E11.90421
G1 X135.379 Y71.847 E11.92588
G1 X135.099 Y72.576 E11.95185
G1 X134.199 Y75.016 E12.03835
G1 X133.391 Y77.412 E12.12245
G1 X132.65 Y79.837 E12.20679
G1 X131.975 Y82.289 E12.29138
G1 X131.378 Y84.723 E12.37473
G1 X130.853 Y87.16 E12.45765
G1 X130.382 Y89.691 E12.54327
G1 X129.994 Y92.168 E12.62666
G1 X129.669 Y94.714 E12.71203
G1 X129.421 Y97.213 E12.79556
G1 X129.245 Y99.703 E12.87858
G1 X129.137 Y102.269 E12.964
G1 X129.1 Y104.854 E13.04999
G1 X129.1 Y117.463 E13.46936
G1 X129.137 Y120.088 E13.55668
G1 X129.244 Y122.596 E13.64017
G1 X129.422 Y125.116 E13.7242
G1 X129.671 Y127.631 E13.80826
G1 X129.99 Y130.12 E13.89172
G1 X130.391 Y132.672 E13.97764
G1 X130.843 Y135.103 E14.05988
G1 X131.379 Y137.595 E14.14466
G1 X131.981 Y140.052 E14.2288
G1 X132.654 Y142.497 E14.31314
G1 X133.389 Y144.897 E14.39663
G1 X134.203 Y147.311 E14.48136
G1 X135.07 Y149.661 E14.56467
G1 X136.023 Y152.035 E14.64975
G1 X136.179 Y152.394 E14.66277
G1 X136.213 Y152.482 E14.66591
G1 X136.756 Y153.764 E14.71222
G1 X137.077 Y154.626 E14.74281
G1 X137.323 Y155.514 E14.77346
G1 X137.436 Y156.067 E14.79223
G1 X137.577 Y156.871 E14.81938
G1 X137.884 Y158.804 E14.88448
G1 X137.982 Y159.487 E14.90743
G1 X138.073 Y160.404 E14.93808
G1 X138.084 Y161.324 E14.96868
G1 X137.983 Y162.488 E15.00754
G1 X137.848 Y163.429 E15.03916
G1 X137.564 Y165.216 E15.09934
G1 X137.448 Y165.886 E15.12195
G1 X137.251 Y166.786 E15.1526
G1 X136.978 Y167.665 E15.18321
G1 X136.518 Y168.751 E15.22244
G1 X136.159 Y169.482 E15.24952
G1 X135.363 Y171.046 E15.30789
G1 X134.959 Y171.814 E15.33675
G1 X134.494 Y172.609 E15.36739
G1 X133.963 Y173.36 E15.39798
G1 X133.193 Y174.247 E15.43705
G1 X132.644 Y174.813 E15.46327
G1 X131.251 Y176.207 E15.52882
G1 X130.772 Y176.673 E15.55105
G1 X130.084 Y177.285 E15.58167
G1 X129.347 Y177.836 E15.61228
G1 X128.335 Y178.445 E15.65156
G1 X127.481 Y178.896 E15.68368
G1 X126.05 Y179.625 E15.7371
G1 X125.289 Y180.001 E15.76533
G1 X124.447 Y180.373 E15.79595
G1 X123.575 Y180.67 E15.82659
G1 X122.415 Y180.94 E15.8662
G1 X121.617 Y181.079 E15.89314
G1 X119.85 Y181.36 E15.95265
G1 X119.693 Y181.384 E15.95793
G1 X119.009 Y181.482 E15.98091
G1 X118.093 Y181.573 E16.01153
G1 X117.173 Y181.584 E16.04213
G1 X116.009 Y181.483 E16.08099
G1 X115.071 Y181.348 E16.11251
G1 X113.284 Y181.064 E16.17269
G1 X112.614 Y180.948 E16.19531
G1 X111.714 Y180.751 E16.22595
G1 X110.835 Y180.478 E16.25657
G1 X109.753 Y180.02 E16.29564
G1 X109.011 Y179.656 E16.32313
G1 X107.319 Y178.793 E16.38631
G1 X106.686 Y178.459 E16.41011
G1 X105.891 Y177.994 E16.44074
G1 X105.14 Y177.463 E16.47134
G1 X104.253 Y176.693 E16.5104
G1 X103.687 Y176.144 E16.53663
G1 X102.286 Y174.743 E16.60253
G1 X101.819 Y174.262 E16.62483
G1 X101.207 Y173.574 E16.65545
G1 X100.657 Y172.836 E16.68606
G1 X100.054 Y171.834 E16.72496
G1 X99.604 Y170.981 E16.75704
G1 X98.875 Y169.55 E16.81045
G1 X98.499 Y168.789 E16.83868
G1 X98.127 Y167.947 E16.8693
G1 X97.83 Y167.075 E16.89994
G1 X97.56 Y165.915 E16.93955
G1 X97.421 Y165.117 E16.96649
G1 X97.14 Y163.35 E17.026
G1 X97.116 Y163.193 E17.03129
G1 X97.018 Y162.509 E17.05427
G1 X96.927 Y161.593 E17.08488
G1 X96.916 Y160.673 E17.11549
G1 X97.017 Y159.509 E17.15435
G1 X97.13 Y158.717 E17.18095
G1 X97.154 Y158.564 E17.18611
G1 X97.355 Y157.158 E17.23334
G1 X97.489 Y156.318 E17.26164
G1 X97.674 Y155.416 E17.29226
G1 X97.915 Y154.598 E17.32062
G1 X97.955 Y154.48 E17.32477
G1 X98.213 Y153.797 E17.34905
G1 X98.351 Y153.468 E17.36092
G1 X99.153 Y151.597 E17.42862
G1 X100.089 Y149.234 E17.51316
G1 X100.946 Y146.879 E17.59651
G1 X101.733 Y144.504 E17.67973
G1 X102.471 Y142.051 E17.76493
G1 X103.136 Y139.586 E17.84985
G1 X103.711 Y137.196 E17.93161
G1 X104.239 Y134.684 E18.01698
G1 X104.688 Y132.201 E18.1009
G1 X105.07 Y129.688 E18.18545
G1 X105.379 Y127.174 E18.26969
G1 X105.616 Y124.661 E18.35365
G1 X105.781 Y122.157 E18.43711
G1 X105.878 Y119.574 E18.52308
G1 X105.902 Y117.525 E18.59124
G1 X105.902 Y105.122 E19.00376
G1 X105.865 Y102.498 E19.09105
G1 X105.758 Y99.989 E19.17457
G1 X105.58 Y97.469 E19.2586
G1 X105.331 Y94.955 E19.34262
G1 X105.012 Y92.466 E19.42608
G1 X104.611 Y89.914 E19.512
G1 X104.16 Y87.491 E19.59398
G1 X103.613 Y84.945 E19.68059
G1 X103.021 Y82.538 E19.76303
G1 X102.341 Y80.065 E19.84834
G1 X101.613 Y77.689 E19.93099
G1 X100.806 Y75.297 E20.01495
G1 X99.766 Y72.495 E20.11436
G1 X99.532 Y71.89 E20.13594
G1 X99.237 Y71.018 E20.16655
G1 X99.018 Y70.123 E20.1972
G1 X98.878 Y69.213 E20.22782
G1 X98.818 Y68.295 E20.25842
G1 X98.837 Y67.374 E20.28906
G1 X98.936 Y66.459 E20.31967
G1 X99.115 Y65.556 E20.35029
G1 X99.371 Y64.671 E20.38093
G1 X99.653 Y63.926 E20.40743
G1 X99.733 Y63.737 E20.41425
G1 X100.129 Y62.906 E20.44487
G1 X100.595 Y62.112 E20.47549
G0 F6000 X100.949 Y62.3
G1 F1200 X101.475 Y61.566 E20.50552
G1 X102.064 Y60.881 E20.53557
G1 X102.572 Y60.378 E20.55935
G1 X102.906 Y60.069 E20.57448
G1 X104.541 Y58.52 E20.64939
G1 X105.223 Y57.929 E20.67941
G1 X105.955 Y57.4 E20.70945
G1 X106.788 Y56.908 E20.74162
G1 X107.636 Y56.46 E20.77352
G1 X109.181 Y55.674 E20.83118
G1 X109.823 Y55.357 E20.85499
G1 X110.65 Y54.994 E20.88503
G1 X111.505 Y54.705 E20.91505
G1 X112.589 Y54.454 E20.95206
G1 X113.387 Y54.315 E20.979
G1 X115.147 Y54.035 E21.03827
G1 X115.298 Y54.012 E21.04335
G1 X115.982 Y53.914 E21.06633
G1 X116.881 Y53.826 E21.09638
G1 X117.784 Y53.817 E21.12641
G1 X118.87 Y53.913 E21.16267
G1 X119.802 Y54.047 E21.19399
G1 X121.438 Y54.306 E21.24908
G1 X122.253 Y54.447 E21.27659
G1 X123.135 Y54.64 E21.30662
G1 X123.997 Y54.91 E21.33667
G1 X125.009 Y55.342 E21.37326
G1 X125.874 Y55.768 E21.40533
G1 X127.427 Y56.56 E21.46332
G1 X128.066 Y56.897 E21.48734
G1 X128.846 Y57.353 E21.51739
G1 X129.582 Y57.876 E21.54742
G1 X130.187 Y58.388 E21.57379
G1 X131.171 Y59.288 E21.61814
G1 X131.399 Y59.5 E21.62849
G1 X132.426 Y60.47 E21.67548
G1 X133.054 Y61.118 E21.70549
G1 X133.623 Y61.82 E21.73555
G1 X134.127 Y62.569 E21.76557
G1 X134.563 Y63.36 E21.79561
G1 X134.859 Y64.014 E21.81949
G1 X134.923 Y64.17 E21.8251
G1 X135.228 Y65.019 E21.8551
G1 X135.457 Y65.893 E21.88515
G1 X135.608 Y66.783 E21.91518
G1 X135.68 Y67.684 E21.94524
G1 X135.671 Y68.587 E21.97528
G1 X135.583 Y69.486 E22.00532
G1 X135.416 Y70.373 E22.03534
G1 X135.171 Y71.242 E22.06537
G1 X135.006 Y71.703 E22.08166
G1 X134.731 Y72.418 E22.10714
G1 X133.816 Y74.897 E22.19503
G1 X133.005 Y77.304 E22.2795
G1 X132.267 Y79.719 E22.36349
G1 X131.595 Y82.16 E22.4477
G1 X130.985 Y84.649 E22.53294
G1 X130.462 Y87.074 E22.61545
G1 X129.988 Y89.627 E22.70181
G1 X129.597 Y92.122 E22.78581
G1 X129.272 Y94.661 E22.87095
G1 X129.023 Y97.182 E22.9552
G1 X128.844 Y99.693 E23.03893
G1 X128.737 Y102.246 E23.12392
G1 X128.7 Y104.848 E23.21047
G1 X128.7 Y117.469 E23.63025
G1 X128.737 Y120.075 E23.71693
G1 X128.846 Y122.64 E23.80232
G1 X129.024 Y125.147 E23.88591
G1 X129.275 Y127.688 E23.97084
