;FLAVOR:Marlin
;TIME:502
;Filament used: 0.226359m
;Layer height: 0.2
;MINX:96.515
;MINY:70.515
;MINZ:0.2
;MAXX:138.485
;MAXY:164.485
;MAXZ:2
;Generated with Cura_SteamEngine 4.7.1
M140 S60
M105
M190 S60
M104 S200
M105
M109 S200
M82 ;absolute extrusion mode
; Robbie's Ender-3 V2 Start G-Code
M140 S60
M105
M190 S60
M104 S200
M105
M109 S200
M82 ;absolute extrusion mode
M201 X500.00 Y500.00 Z100.00 E5000.00 ;Setup machine max acceleration
M203 X500.00 Y500.00 Z10.00 E50.00 ;Setup machine max feedrate
M204 P500.00 R1000.00 T500.00 ;Setup Print/Retract/Travel acceleration
M205 X8.00 Y8.00 Z0.40 E5.00 ;Setup Jerk
M220 S100 ;Reset Feedrate
M221 S100 ;Reset Flowrate

G28 ;Home

G92 E0 ;Reset Extruder
G1 Z2.0 F3000 ;Move Z Axis up
G1 X10.1 Y20 Z0.28 F5000.0 ;Move to start position
G1 X10.1 Y200.0 Z0.28 F1500.0 E15 ;Draw the first line
G1 X10.4 Y200.0 Z0.28 F5000.0 ;Move to side a little
G1 X10.4 Y20 Z0.28 F1500.0 E30 ;Draw the second line
G92 E0 ;Reset Extruder
G1 Z2.0 F3000 ;Move Z Axis up

G92 E0
G92 E0
G1 F2700 E-5
G92 E0
G92 E0
G1 F1500 E-6
;LAYER_COUNT:10
;LAYER:0
M107
G0 F6000 X100.814 Y78.613 Z0.2
;TYPE:SKIRT
G1 F1500 E0
G1 F1200 X101.422 Y77.898 E0.03122
G1 X102.03 Y77.29 E0.05981
G1 X102.382 Y76.965 E0.07575
G1 X103.991 Y75.44 E0.14948
G1 X104.698 Y74.824 E0.18067
G1 X105.456 Y74.271 E0.21188
G1 X106.414 Y73.7 E0.24897
G1 X107.123 Y73.325 E0.27565
G1 X108.827 Y72.457 E0.33925
G1 X109.469 Y72.14 E0.36307
G1 X110.327 Y71.761 E0.39427
G1 X111.214 Y71.456 E0.42546
G1 X112.451 Y71.166 E0.46772
G1 X113.249 Y71.027 E0.49466
G1 X115.022 Y70.745 E0.55437
G1 X115.185 Y70.72 E0.55986
G1 X115.869 Y70.622 E0.58284
G1 X116.802 Y70.529 E0.61403
G1 X117.74 Y70.515 E0.64523
G1 X118.983 Y70.621 E0.68672
G1 X119.761 Y70.732 E0.71286
G1 X119.927 Y70.757 E0.71844
G1 X121.563 Y71.016 E0.77353
G1 X122.39 Y71.158 E0.80144
G1 X123.306 Y71.357 E0.83262
G1 X124.202 Y71.634 E0.86381
G1 X125.362 Y72.123 E0.90568
G1 X126.093 Y72.482 E0.93277
G1 X127.8 Y73.352 E0.99649
G1 X128.439 Y73.689 E1.02052
G1 X129.25 Y74.162 E1.05175
G1 X130.017 Y74.701 E1.08293
G1 X130.727 Y75.297 E1.11376
G1 X131.717 Y76.202 E1.15837
G1 X131.948 Y76.418 E1.16889
G1 X132.975 Y77.388 E1.21587
G1 X133.629 Y78.061 E1.24709
G1 X134.223 Y78.786 E1.27826
G1 X134.753 Y79.56 E1.30946
G1 X135.215 Y80.376 E1.34065
G1 X135.606 Y81.228 E1.37183
G1 X135.89 Y82.005 E1.39934
G1 X135.952 Y82.197 E1.40605
G1 X136.202 Y83.101 E1.43725
G1 X136.374 Y84.023 E1.46844
G1 X136.466 Y84.956 E1.49963
G1 X136.479 Y85.894 E1.53083
G1 X136.412 Y86.829 E1.56201
G1 X136.178 Y88.155 E1.60679
G1 X135.561 Y90.714 E1.69434
G1 X135.059 Y93.09 E1.77511
G1 X134.591 Y95.655 E1.86183
G1 X134.214 Y98.123 E1.94487
G1 X133.905 Y100.614 E2.02836
G1 X133.667 Y103.11 E2.11175
G1 X133.498 Y105.642 E2.19615
G1 X133.4 Y108.174 E2.28043
G1 X133.375 Y110.663 E2.36322
G1 X133.42 Y113.187 E2.44718
G1 X133.537 Y115.705 E2.53102
G1 X133.724 Y118.201 E2.61427
G1 X133.985 Y120.732 E2.6989
G1 X134.307 Y123.179 E2.78099
G1 X134.713 Y125.703 E2.86602
G1 X135.187 Y128.197 E2.95045
G1 X135.713 Y130.596 E3.03214
G1 X136.326 Y133.053 E3.11636
G1 X137.013 Y135.511 E3.20125
G1 X137.243 Y136.253 E3.22709
G1 X137.543 Y137.268 E3.26229
G1 X137.831 Y138.5 E3.30437
G1 X137.973 Y139.316 E3.33192
G1 X138 Y139.479 E3.33741
G1 X138.279 Y141.245 E3.39688
G1 X138.377 Y141.927 E3.4198
G1 X138.471 Y142.861 E3.45102
G1 X138.485 Y143.798 E3.48219
G1 X138.379 Y145.042 E3.52371
G1 X138.243 Y145.992 E3.55563
G1 X137.984 Y147.628 E3.61072
G1 X137.842 Y148.455 E3.63863
G1 X137.643 Y149.371 E3.66981
G1 X137.366 Y150.267 E3.701
G1 X136.877 Y151.427 E3.74287
G1 X136.518 Y152.158 E3.76996
G1 X135.647 Y153.867 E3.83376
G1 X135.313 Y154.5 E3.85756
G1 X134.84 Y155.31 E3.88876
G1 X134.3 Y156.077 E3.91996
G1 X133.48 Y157.026 E3.96167
G1 X132.931 Y157.592 E3.9879
G1 X131.637 Y158.887 E4.04879
G1 X131.05 Y159.459 E4.07605
G1 X130.351 Y160.084 E4.10723
G1 X129.601 Y160.647 E4.13843
G1 X128.522 Y161.299 E4.18036
G1 X127.811 Y161.675 E4.20711
G1 X126.231 Y162.481 E4.2661
G1 X125.466 Y162.86 E4.2945
G1 X124.608 Y163.239 E4.32569
G1 X123.721 Y163.544 E4.35689
G1 X122.484 Y163.834 E4.39915
G1 X121.686 Y163.973 E4.42609
G1 X119.913 Y164.255 E4.4858
G1 X119.75 Y164.28 E4.49129
G1 X119.066 Y164.378 E4.51427
G1 X118.133 Y164.471 E4.54545
G1 X117.195 Y164.485 E4.57666
G1 X115.952 Y164.379 E4.61815
G1 X115.174 Y164.268 E4.64429
G1 X115.008 Y164.243 E4.64987
G1 X113.372 Y163.984 E4.70496
G1 X112.545 Y163.842 E4.73287
G1 X111.629 Y163.643 E4.76405
G1 X110.733 Y163.366 E4.79524
G1 X109.577 Y162.879 E4.83696
G1 X108.835 Y162.515 E4.86445
G1 X108.683 Y162.439 E4.8701
G1 X107.269 Y161.718 E4.92289
G1 X106.5 Y161.313 E4.9518
G1 X105.69 Y160.84 E4.983
G1 X104.923 Y160.3 E5.0142
G1 X103.974 Y159.48 E5.05591
G1 X103.408 Y158.931 E5.08214
G1 X102.113 Y157.637 E5.14303
G1 X101.532 Y157.04 E5.17073
G1 X100.908 Y156.34 E5.20192
G1 X100.346 Y155.59 E5.2331
G1 X99.7 Y154.521 E5.27464
G1 X99.325 Y153.812 E5.30131
G1 X98.457 Y152.108 E5.36492
G1 X98.14 Y151.466 E5.38873
G1 X97.761 Y150.608 E5.41993
G1 X97.456 Y149.721 E5.45113
G1 X97.166 Y148.484 E5.49339
G1 X97.027 Y147.686 E5.52033
G1 X96.745 Y145.913 E5.58004
G1 X96.72 Y145.748 E5.58559
G1 X96.622 Y145.063 E5.6086
G1 X96.529 Y144.13 E5.63979
G1 X96.515 Y143.192 E5.67099
G1 X96.62 Y141.96 E5.71212
G1 X96.765 Y140.936 E5.74652
G1 X97.024 Y139.189 E5.80526
G1 X97.09 Y138.769 E5.8194
G1 X97.275 Y137.85 E5.85058
G1 X97.454 Y137.208 E5.87274
G1 X97.557 Y136.877 E5.88427
G1 X98.282 Y134.415 E5.96964
G1 X98.931 Y131.957 E6.05419
G1 X99.503 Y129.511 E6.13774
G1 X99.999 Y127.089 E6.21997
G1 X100.44 Y124.561 E6.30532
G1 X100.803 Y122.075 E6.38888
G1 X101.098 Y119.564 E6.47297
G1 X101.318 Y117.073 E6.55615
G1 X101.468 Y114.577 E6.63931
G1 X101.549 Y112.028 E6.72414
G1 X101.557 Y109.533 E6.80712
G1 X101.495 Y107.009 E6.89109
G1 X101.361 Y104.49 E6.97499
G1 X101.155 Y101.964 E7.05929
G1 X100.885 Y99.504 E7.1416
G1 X100.532 Y96.961 E7.22699
G1 X100.119 Y94.501 E7.30996
G1 X99.636 Y92.049 E7.39308
G1 X99.077 Y89.582 E7.47721
G1 X98.83 Y88.607 E7.51066
G1 X98.783 Y88.413 E7.5173
G1 X98.701 Y88.062 E7.52929
G1 X98.527 Y87.141 E7.56047
G1 X98.432 Y86.208 E7.59166
G1 X98.417 Y85.27 E7.62286
G1 X98.481 Y84.334 E7.65406
G1 X98.626 Y83.408 E7.68524
G1 X98.848 Y82.497 E7.71642
G1 X99.305 Y81.221 E7.7615
G1 X99.387 Y81.03 E7.76842
G1 X99.794 Y80.184 E7.79964
G1 X100.27 Y79.377 E7.8308
G1 X100.814 Y78.613 E7.862
G0 F6000 X101.161 Y78.818
G1 F1200 X101.761 Y78.12 E7.89261
G1 X102.301 Y77.584 E7.91792
G1 X102.644 Y77.267 E7.93345
G1 X104.266 Y75.73 E8.00777
G1 X104.961 Y75.126 E8.0384
G1 X105.706 Y74.585 E8.06902
G1 X106.601 Y74.054 E8.10364
G1 X107.454 Y73.604 E8.13571
G1 X108.885 Y72.875 E8.18913
G1 X109.646 Y72.499 E8.21736
G1 X110.488 Y72.127 E8.24798
G1 X111.36 Y71.83 E8.27862
G1 X112.52 Y71.56 E8.31823
G1 X113.318 Y71.421 E8.34517
G1 X115.085 Y71.14 E8.40468
G1 X115.242 Y71.116 E8.40996
G1 X115.926 Y71.018 E8.43294
G1 X116.842 Y70.927 E8.46356
G1 X117.762 Y70.916 E8.49416
G1 X118.926 Y71.017 E8.53302
G1 X119.864 Y71.152 E8.56454
G1 X121.651 Y71.436 E8.62472
G1 X122.321 Y71.552 E8.64734
G1 X123.221 Y71.749 E8.67798
G1 X124.1 Y72.022 E8.70859
G1 X125.186 Y72.482 E8.74782
G1 X125.917 Y72.841 E8.77491
G1 X127.481 Y73.637 E8.83328
G1 X128.253 Y74.043 E8.86229
G1 X129.048 Y74.507 E8.8929
G1 X129.799 Y75.039 E8.92351
G1 X130.457 Y75.593 E8.95212
G1 X131.444 Y76.495 E8.9966
G1 X131.673 Y76.709 E9.00702
G1 X132.7 Y77.679 E9.05401
G1 X133.342 Y78.339 E9.08463
G1 X133.923 Y79.053 E9.11525
G1 X134.44 Y79.815 E9.14587
G1 X134.89 Y80.618 E9.17649
G1 X135.268 Y81.458 E9.20713
G1 X135.509 Y82.128 E9.23081
G1 X135.571 Y82.32 E9.23752
G1 X135.816 Y83.207 E9.26813
G1 X135.982 Y84.113 E9.29876
G1 X136.07 Y85.029 E9.32937
G1 X136.077 Y85.95 E9.36
G1 X136.005 Y86.868 E9.39063
G1 X135.789 Y88.061 E9.43095
G1 X135.175 Y90.609 E9.51812
G1 X134.661 Y93.041 E9.6008
G1 X134.202 Y95.555 E9.6858
G1 X133.814 Y98.096 E9.77129
G1 X133.508 Y100.564 E9.85401
G1 X133.268 Y103.078 E9.938
G1 X133.098 Y105.636 E10.02327
G1 X133 Y108.155 E10.10711
G1 X132.975 Y110.666 E10.19064
G1 X133.02 Y113.177 E10.27416
G1 X133.139 Y115.755 E10.36
G1 X133.325 Y118.235 E10.44272
G1 X133.585 Y120.754 E10.52694
G1 X133.916 Y123.263 E10.61112
G1 X134.318 Y125.764 E10.69537
G1 X134.785 Y128.225 E10.77868
G1 X135.331 Y130.715 E10.86347
G1 X135.938 Y133.153 E10.94703
G1 X136.632 Y135.632 E11.03265
G1 X136.859 Y136.366 E11.05821
G1 X137.159 Y137.381 E11.09341
G1 X137.437 Y138.569 E11.13399
G1 X137.579 Y139.385 E11.16154
G1 X137.86 Y141.15 E11.22098
G1 X137.981 Y141.984 E11.24901
G1 X138.072 Y142.9 E11.27963
G1 X138.084 Y143.821 E11.31026
G1 X137.983 Y144.985 E11.34912
G1 X137.848 Y145.929 E11.38084
G1 X137.564 Y147.716 E11.44102
G1 X137.448 Y148.386 E11.46364
G1 X137.251 Y149.286 E11.49428
G1 X136.978 Y150.165 E11.52489
G1 X136.518 Y151.251 E11.56412
G1 X136.159 Y151.982 E11.59121
G1 X135.363 Y153.546 E11.64958
G1 X134.959 Y154.314 E11.67844
G1 X134.494 Y155.109 E11.70907
G1 X133.963 Y155.86 E11.73966
G1 X133.193 Y156.747 E11.77873
G1 X132.644 Y157.313 E11.80496
G1 X131.251 Y158.707 E11.8705
G1 X130.772 Y159.173 E11.89273
G1 X130.084 Y159.785 E11.92336
G1 X129.347 Y160.336 E11.95396
G1 X128.335 Y160.945 E11.99325
G1 X127.481 Y161.396 E12.02537
G1 X126.05 Y162.125 E12.07878
G1 X125.289 Y162.501 E12.10702
G1 X124.447 Y162.873 E12.13763
G1 X123.575 Y163.17 E12.16827
G1 X122.415 Y163.44 E12.20788
G1 X121.617 Y163.579 E12.23482
G1 X119.85 Y163.86 E12.29433
G1 X119.693 Y163.884 E12.29962
G1 X119.009 Y163.982 E12.3226
G1 X118.093 Y164.073 E12.35321
G1 X117.173 Y164.084 E12.38382
G1 X116.009 Y163.983 E12.42268
G1 X115.071 Y163.848 E12.4542
G1 X113.284 Y163.564 E12.51438
G1 X112.614 Y163.448 E12.53699
G1 X111.714 Y163.251 E12.56764
G1 X110.835 Y162.978 E12.59825
G1 X109.753 Y162.52 E12.63733
G1 X109.011 Y162.156 E12.66482
G1 X107.319 Y161.293 E12.72799
G1 X106.686 Y160.959 E12.7518
G1 X105.891 Y160.494 E12.78243
G1 X105.14 Y159.963 E12.81302
G1 X104.253 Y159.193 E12.85209
G1 X103.687 Y158.644 E12.87831
G1 X102.286 Y157.243 E12.94421
G1 X101.819 Y156.762 E12.96651
G1 X101.207 Y156.074 E12.99714
G1 X100.657 Y155.336 E13.02775
G1 X100.054 Y154.334 E13.06664
G1 X99.604 Y153.481 E13.09872
G1 X98.875 Y152.05 E13.15214
G1 X98.499 Y151.289 E13.18037
G1 X98.127 Y150.447 E13.21099
G1 X97.83 Y149.575 E13.24162
G1 X97.56 Y148.415 E13.28124
G1 X97.421 Y147.617 E13.30818
G1 X97.14 Y145.85 E13.36769
G1 X97.116 Y145.691 E13.37304
G1 X97.018 Y145.006 E13.39605
G1 X96.927 Y144.09 E13.42667
G1 X96.916 Y143.169 E13.4573
G1 X97.016 Y142.017 E13.49576
G1 X97.161 Y140.994 E13.53013
G1 X97.405 Y139.345 E13.58557
G1 X97.486 Y138.831 E13.60288
G1 X97.668 Y137.929 E13.63348
G1 X97.836 Y137.327 E13.65427
G1 X97.943 Y136.983 E13.66625
G1 X98.667 Y134.524 E13.75151
G1 X99.324 Y132.037 E13.83707
G1 X99.889 Y129.619 E13.91965
G1 X100.391 Y127.167 E14.0029
G1 X100.836 Y124.621 E14.08886
G1 X101.198 Y122.139 E14.17229
G1 X101.495 Y119.61 E14.25698
G1 X101.717 Y117.099 E14.34082
G1 X101.869 Y114.579 E14.42479
G1 X101.949 Y112.041 E14.50925
G1 X101.957 Y109.525 E14.59293
G1 X101.894 Y106.979 E14.67764
G1 X101.761 Y104.473 E14.7611
G1 X101.556 Y101.956 E14.8451
G1 X101.276 Y99.407 E14.93039
G1 X100.934 Y96.946 E15.01303
G1 X100.511 Y94.423 E15.09811
G1 X100.026 Y91.962 E15.18154
G1 X99.462 Y89.474 E15.26639
G1 X99.218 Y88.509 E15.2995
G1 X99.091 Y87.971 E15.31788
G1 X98.921 Y87.067 E15.34848
G1 X98.829 Y86.151 E15.3791
G1 X98.818 Y85.23 E15.40973
G1 X98.887 Y84.312 E15.44035
G1 X99.035 Y83.403 E15.47098
G1 X99.261 Y82.511 E15.50159
G1 X99.673 Y81.378 E15.54169
G1 X99.755 Y81.187 E15.5486
G1 X100.154 Y80.358 E15.5792
G1 X100.624 Y79.566 E15.60983
G1 X101.161 Y78.818 E15.64046
G0 F6000 X101.508 Y79.025
G1 F1200 X102.1 Y78.343 E15.67049
G1 X102.572 Y77.878 E15.69253
G1 X102.906 Y77.569 E15.70767
G1 X104.541 Y76.02 E15.78258
G1 X105.223 Y75.429 E15.81259
G1 X105.955 Y74.9 E15.84263
G1 X106.788 Y74.408 E15.87481
G1 X107.636 Y73.96 E15.90671
G1 X109.181 Y73.174 E15.96436
G1 X109.823 Y72.857 E15.98817
G1 X110.65 Y72.494 E16.01821
G1 X111.505 Y72.205 E16.04823
G1 X112.589 Y71.954 E16.08524
G1 X113.387 Y71.815 E16.11218
G1 X115.147 Y71.535 E16.17145
G1 X115.298 Y71.512 E16.17654
G1 X115.982 Y71.414 E16.19952
G1 X116.881 Y71.326 E16.22956
G1 X117.784 Y71.317 E16.2596
G1 X118.87 Y71.413 E16.29586
G1 X119.802 Y71.547 E16.32718
G1 X121.438 Y71.806 E16.38227
G1 X122.253 Y71.947 E16.40978
G1 X123.135 Y72.14 E16.43981
G1 X123.997 Y72.41 E16.46985
G1 X125.009 Y72.842 E16.50645
G1 X125.874 Y73.268 E16.53852
G1 X127.427 Y74.06 E16.5965
G1 X128.066 Y74.397 E16.62053
G1 X128.846 Y74.853 E16.65058
G1 X129.582 Y75.376 E16.68061
G1 X130.187 Y75.888 E16.70697
G1 X131.171 Y76.788 E16.75132
G1 X131.399 Y77 E16.76168
G1 X132.426 Y77.97 E16.80866
G1 X133.054 Y78.618 E16.83868
G1 X133.623 Y79.32 E16.86873
G1 X134.127 Y80.069 E16.89876
G1 X134.563 Y80.86 E16.9288
G1 X134.928 Y81.686 E16.95883
G1 X135.128 Y82.251 E16.97877
G1 X135.19 Y82.443 E16.98548
G1 X135.43 Y83.313 E17.0155
G1 X135.591 Y84.202 E17.04555
G1 X135.673 Y85.101 E17.07557
G1 X135.675 Y86.005 E17.10564
G1 X135.597 Y86.904 E17.13565
G1 X135.4 Y87.968 E17.17164
G1 X134.78 Y90.539 E17.2596
G1 X134.267 Y92.965 E17.34208
G1 X133.806 Y95.494 E17.42758
G1 X133.42 Y98.022 E17.51263
G1 X133.112 Y100.508 E17.59595
G1 X132.866 Y103.084 E17.68202
G1 X132.699 Y105.594 E17.76569
G1 X132.601 Y108.135 E17.85026
G1 X132.575 Y110.669 E17.93455
G1 X132.62 Y113.203 E18.01884
G1 X132.737 Y115.732 E18.10305
G1 X132.93 Y118.305 E18.18887
G1 X133.189 Y120.815 E18.27279
G1 X133.517 Y123.303 E18.35626
G1 X133.924 Y125.836 E18.44159
G1 X134.4 Y128.34 E18.52636
G1 X134.945 Y130.825 E18.61098
G1 X135.543 Y133.226 E18.69328
G1 X136.232 Y135.69 E18.77837
G1 X136.476 Y136.48 E18.80587
G1 X136.776 Y137.495 E18.84108
G1 X137.043 Y138.637 E18.88008
G1 X137.185 Y139.453 E18.90763
G1 X137.465 Y141.212 E18.96687
G1 X137.585 Y142.041 E18.99473
G1 X137.674 Y142.94 E19.02478
G1 X137.683 Y143.843 E19.05482
G1 X137.587 Y144.929 E19.09108
G1 X137.453 Y145.867 E19.12259
G1 X137.194 Y147.503 E19.17768
G1 X137.053 Y148.318 E19.20519
G1 X136.86 Y149.2 E19.23522
G1 X136.59 Y150.062 E19.26527
G1 X136.158 Y151.074 E19.30186
G1 X135.732 Y151.939 E19.33393
G1 X134.939 Y153.494 E19.39199
G1 X134.605 Y154.127 E19.4158
G1 X134.149 Y154.906 E19.44582
G1 X133.625 Y155.642 E19.47587
G1 X132.906 Y156.469 E19.51232
G1 X132.357 Y157.035 E19.53854
G1 X130.972 Y158.42 E19.60369
G1 X130.493 Y158.886 E19.62591
G1 X129.818 Y159.486 E19.65595
G1 X129.093 Y160.025 E19.686
G1 X128.148 Y160.592 E19.72265
G1 X127.299 Y161.04 E19.75458
G1 X125.754 Y161.826 E19.81224
G1 X125.112 Y162.143 E19.83605
G1 X124.285 Y162.506 E19.86609
G1 X123.43 Y162.795 E19.89611
G1 X122.346 Y163.046 E19.93312
G1 X121.548 Y163.185 E19.96006
G1 X119.788 Y163.465 E20.01933
G1 X119.637 Y163.488 E20.02441
G1 X118.953 Y163.586 E20.04739
G1 X118.054 Y163.674 E20.07744
G1 X117.151 Y163.683 E20.10747
G1 X116.065 Y163.587 E20.14373
G1 X115.133 Y163.453 E20.17505
G1 X113.497 Y163.194 E20.23014
G1 X112.682 Y163.053 E20.25765
G1 X111.8 Y162.86 E20.28768
G1 X110.938 Y162.59 E20.31773
G1 X109.93 Y162.16 E20.35418
G1 X109.047 Y161.726 E20.3869
G1 X107.633 Y161.005 E20.43969
G1 X106.873 Y160.605 E20.46826
G1 X106.094 Y160.149 E20.49828
G1 X105.358 Y159.625 E20.52833
G1 X104.531 Y158.906 E20.56478
G1 X103.965 Y158.357 E20.591
G1 X102.573 Y156.964 E20.6565
G1 X102.106 Y156.483 E20.6788
G1 X101.506 Y155.808 E20.70884
G1 X100.968 Y155.082 E20.73889
G1 X100.408 Y154.147 E20.77514
